aidilqmn/Forecasting-Malaysia-Banknotes-Circulation/Power BI/Power BI Datasets/forecast_results_long.csv
date,model,denomination_code,denomination,denomination_value,actual_value_rm_million,forecast_value_rm_million,actual_quantity_million_notes,forecast_quantity_million_notes,error_value_rm_million,absolute_error_value_rm_million,percentage_error
2021-02-01,SMA,note_1,RM1,1,2790.016779,2716.5572370000004,2790.016779,2716.5572370000004,73.4595419999996,73.4595419999996,0.026329426601631057
2021-03-01,SMA,note_1,RM1,1,2775.8663245,2755.0294966666665,2775.8663245,2755.0294966666665,20.836827833333246,20.836827833333246,0.007506423363915573
2021-04-01,SMA,note_1,RM1,1,3001.723709,2787.9335974999995,3001.723709,2787.9335974999995,213.79011150000042,213.79011150000042,0.07122244824165475
2021-05-01,SMA,note_1,RM1,1,3012.6662655,2855.8689374999994,3012.6662655,2855.8689374999994,156.79732800000056,156.79732800000056,0.05204603304242116
2021-06-01,SMA,note_1,RM1,1,2983.81815,2930.085433,2983.81815,2930.085433,53.732716999999866,53.732716999999866,0.018008040134751463
2021-07-01,SMA,note_1,RM1,1,2958.804983,2999.402708166667,2958.804983,2999.402708166667,-40.597725166666805,40.597725166666805,0.013720987155261528
2021-08-01,SMA,note_1,RM1,1,2942.0285525,2985.096466166667,2942.0285525,2985.096466166667,-43.06791366666721,43.06791366666721,0.014638849657006247
2021-09-01,SMA,note_1,RM1,1,2920.5891615,2961.5505618333336,2920.5891615,2961.5505618333336,-40.961400333333586,40.961400333333586,0.014025047025887069
2021-10-01,SMA,note_1,RM1,1,2911.937547,2940.4742323333335,2911.937547,2940.4742323333335,-28.53668533333348,28.53668533333348,0.009799896073572446
2021-11-01,SMA,note_1,RM1,1,2909.622096,2924.8517536666664,2909.622096,2924.8517536666664,-15.229657666666299,15.229657666666299,0.005234239074415627
2021-12-01,SMA,note_1,RM1,1,2948.8807235,2914.0496015000003,2948.8807235,2914.0496015000003,34.831121999999596,34.831121999999596,0.011811641522977182
2022-01-01,SMA,note_1,RM1,1,3042.8366285,2923.480122166666,3042.8366285,2923.480122166666,119.35650633333398,119.35650633333398,0.039225407376593885
2022-02-01,SMA,note_1,RM1,1,3020.4277965,2967.1131493333337,3020.4277965,2967.1131493333337,53.31464716666642,53.31464716666642,0.017651356284181387
2022-03-01,SMA,note_1,RM1,1,3078.1107755,3004.048382833333,3078.1107755,3004.048382833333,74.06239266666671,74.06239266666671,0.024060990025492574
2022-04-01,SMA,note_1,RM1,1,3267.546536,3047.1250668333337,3267.546536,3047.1250668333337,220.42146916666616,220.42146916666616,0.06745779034458597
2022-05-01,SMA,note_1,RM1,1,3264.704689,3122.028369333333,3264.704689,3122.028369333333,142.67631966666704,142.67631966666704,0.04370267244917938
2022-06-01,SMA,note_1,RM1,1,3225.588322,3203.4540001666664,3225.588322,3203.4540001666664,22.134321833333615,22.134321833333615,0.0068621037850265425
2022-07-01,SMA,note_1,RM1,1,3184.3508815,3252.613182333333,3184.3508815,3252.613182333333,-68.26230083333303,68.26230083333303,0.0214368024673141
2022-08-01,SMA,note_1,RM1,1,3124.370902,3224.8812975,3124.370902,3224.8812975,-100.51039549999996,100.51039549999996,0.03216980270673381
2022-09-01,SMA,note_1,RM1,1,3079.5521745,3178.1033685,3079.5521745,3178.1033685,-98.55119400000012,98.55119400000012,0.0320017939023881
2022-10-01,SMA,note_1,RM1,1,3053.5370025,3129.4246526666666,3053.5370025,3129.4246526666666,-75.88765016666639,75.88765016666639,0.024852376147574254
2022-11-01,SMA,note_1,RM1,1,3033.295173,3085.8200263333333,3033.295173,3085.8200263333333,-52.52485333333334,52.52485333333334,0.017316103556577065
2022-12-01,SMA,note_1,RM1,1,3111.135887,3055.4614500000002,3111.135887,3055.4614500000002,55.67443699999967,55.67443699999967,0.017895212238281662
2023-01-01,SMA,note_1,RM1,1,3155.381271,3065.9893541666665,3155.381271,3065.9893541666665,89.39191683333365,89.39191683333365,0.028329989042814994
2023-02-01,SMA,note_1,RM1,1,3117.67962,3099.937443666667,3117.67962,3099.937443666667,17.742176333332736,17.742176333332736,0.005690827312568036
2023-03-01,SMA,note_1,RM1,1,3343.8096755,3128.0655926666664,3343.8096755,3128.0655926666664,215.74408283333378,215.74408283333378,0.06452044337752971
2023-04-01,SMA,note_1,RM1,1,3462.6475035,3205.6235221666666,3462.6475035,3205.6235221666666,257.02398133333327,257.02398133333327,0.07422759061485083
2023-05-01,SMA,note_1,RM1,1,3421.424783,3308.0455996666665,3421.424783,3308.0455996666665,113.37918333333346,113.37918333333346,0.033138002593737996
2023-06-01,SMA,note_1,RM1,1,3353.004177,3409.293987333333,3353.004177,3409.293987333333,-56.28981033333321,56.28981033333321,0.016787873608823486
2023-07-01,SMA,note_1,RM1,1,3267.7879585,3412.3588211666665,3267.7879585,3412.3588211666665,-144.57086266666647,144.57086266666647,0.0442412006233808
2023-08-01,SMA,note_1,RM1,1,3143.709253,3347.4056394999993,3143.709253,3347.4056394999993,-203.69638649999933,203.69638649999933,0.06479491902936461
2023-09-01,SMA,note_1,RM1,1,3068.301169,3254.833796166667,3068.301169,3254.833796166667,-186.53262716666723,186.53262716666723,0.06079345438813644
2023-10-01,SMA,note_1,RM1,1,3029.932712,3159.9327935,3029.932712,3159.9327935,-130.0000815000003,130.0000815000003,0.04290527013525319
2023-11-01,SMA,note_1,RM1,1,3006.4198215,3080.647711333333,3006.4198215,3080.647711333333,-74.22788983333294,74.22788983333294,0.024689795251648602
2023-12-01,SMA,note_1,RM1,1,3029.565142,3034.8845675,3029.565142,3034.8845675,-5.319425499999852,5.319425499999852,0.001755837967058261
2024-01-01,SMA,note_1,RM1,1,3127.3013885,3021.9725584999996,3127.3013885,3021.9725584999996,105.32883000000038,105.32883000000038,0.03368042184463743
2024-02-01,SMA,note_1,RM1,1,3093.8765985,3054.4287839999997,3093.8765985,3054.4287839999997,39.44781450000028,39.44781450000028,0.012750286976256813
2024-03-01,SMA,note_1,RM1,1,3448.5535915,3083.581043,3448.5535915,3083.581043,364.9725484999999,364.9725484999999,0.10583351507124168
2024-04-01,SMA,note_1,RM1,1,3469.021618,3223.2438595000003,3469.021618,3223.2438595000003,245.7777584999999,245.7777584999999,0.07084930149316812
2024-05-01,SMA,note_1,RM1,1,3375.5473775,3337.150602666667,3375.5473775,3337.150602666667,38.396774833332984,38.396774833332984,0.011374977311611733
2024-06-01,SMA,note_1,RM1,1,3313.687856,3431.0408623333333,3313.687856,3431.0408623333333,-117.35300633333327,117.35300633333327,0.03541462305233293
2024-07-01,SMA,note_1,RM1,1,3232.286078,3386.085617166667,3232.286078,3386.085617166667,-153.79953916666682,153.79953916666682,0.04758227936984816
2024-08-01,SMA,note_1,RM1,1,3183.07128,3307.1737705,3183.07128,3307.1737705,-124.10249049999993,124.10249049999993,0.03898828508169629
2024-09-01,SMA,note_1,RM1,1,3158.28922,3243.0150713333333,3158.28922,3243.0150713333333,-84.72585133333314,84.72585133333314,0.026826501764563897
2024-10-01,SMA,note_1,RM1,1,3127.9969355,3191.215526,3127.9969355,3191.215526,-63.21859050000012,63.21859050000012,0.0202105666353202
2024-11-01,SMA,note_1,RM1,1,3109.9682245,3156.4524785,3109.9682245,3156.4524785,-46.484253999999964,46.484253999999964,0.01494685818131579
2024-12-01,SMA,note_1,RM1,1,3155.541517,3132.0847933333334,3155.541517,3132.0847933333334,23.456723666666676,23.456723666666676,0.007433501838051296
2025-01-01,SMA,note_1,RM1,1,3211.267151,3131.168892333333,3211.267151,3131.168892333333,80.09825866666688,80.09825866666688,0.02494288232659933
2025-02-01,SMA,note_1,RM1,1,3330.2800305,3158.9256308333333,3330.2800305,3158.9256308333333,171.35439966666672,171.35439966666672,0.05145345079012469
2025-03-01,SMA,note_1,RM1,1,3523.4432705,3232.3628995,3523.4432705,3232.3628995,291.080371,291.080371,0.08261247553978464
2025-04-01,SMA,note_1,RM1,1,3509.8866375,3354.996817333333,3509.8866375,3354.996817333333,154.8898201666666,154.8898201666666,0.0441295791470321
2025-05-01,SMA,note_1,RM1,1,3438.3736465,3454.5366461666667,3438.3736465,3454.5366461666667,-16.162999666666565,16.162999666666565,0.0047007688309614794
2025-06-01,SMA,note_1,RM1,1,3383.6197155,3490.5678515,3383.6197155,3490.5678515,-106.94813599999998,106.94813599999998,0.03160761107700195
2025-07-01,SMA,note_1,RM1,1,3318.2309045,3443.9599998333338,3318.2309045,3443.9599998333338,-125.72909533333359,125.72909533333359,0.03789039971956948
2025-08-01,SMA,note_1,RM1,1,3261.222365,3380.0747555000003,3261.222365,3380.0747555000003,-118.85239050000018,118.85239050000018,0.0364441234598243
2025-09-01,SMA,note_1,RM1,1,3233.2349375,3321.0243283333334,3233.2349375,3321.0243283333334,-87.78939083333353,87.78939083333353,0.027152184276845032
2025-10-01,SMA,note_1,RM1,1,3217.2711135,3270.896069,3217.2711135,3270.896069,-53.62495549999994,53.62495549999994,0.016667838552674074
2025-11-01,SMA,note_1,RM1,1,3201.43262,3237.2428053333333,3201.43262,3237.2428053333333,-35.810185333333266,35.810185333333266,0.011185675159808069
2025-12-01,SMA,note_1,RM1,1,3245.5476715,3217.312890333333,3245.5476715,3217.312890333333,28.234781166666835,28.234781166666835,0.008699542889048837
2026-01-01,SMA,note_1,RM1,1,3423.6235415,3221.417135,3423.6235415,3221.417135,202.20640649999996,202.20640649999996,0.05906210307556385
2026-02-01,SMA,note_1,RM1,1,3564.366069,3290.2012776666666,3564.366069,3290.2012776666666,274.1647913333336,274.1647913333336,0.07691824745998994
2021-02-01,SMA,note_5,RM5,5,2732.4145775,2594.2728041666664,546.4829155,518.8545608333333,138.14177333333373,138.14177333333373,0.050556666792388946
2021-03-01,SMA,note_5,RM5,5,2691.967875,2667.94433,538.3935749999999,533.5888659999999,24.023545000000013,24.023545000000013,0.008924157388022326
2021-04-01,SMA,note_5,RM5,5,2898.37506,2726.0863091666665,579.6750119999999,545.2172618333333,172.28875083333332,172.28875083333332,0.05944322155233192
2021-05-01,SMA,note_5,RM5,5,2894.997075,2774.2525041666668,578.999415,554.8505008333334,120.74457083333346,120.74457083333346,0.04170801133998847
2021-06-01,SMA,note_5,RM5,5,2848.26866,2828.44667,569.653732,565.6893339999999,19.82199000000037,19.82199000000037,0.006959311907044741
2021-07-01,SMA,note_5,RM5,5,2808.536295,2880.5469316666663,561.707259,576.1093863333333,-72.01063666666641,72.01063666666641,0.025639916704963364
2021-08-01,SMA,note_5,RM5,5,2776.11333,2850.6006766666665,555.222666,570.1201353333333,-74.48734666666633,74.48734666666633,0.02683152228034809
2021-09-01,SMA,note_5,RM5,5,2748.2739975,2810.9727616666664,549.6547995,562.1945523333333,-62.69876416666648,62.69876416666648,0.022813869440856754
2021-10-01,SMA,note_5,RM5,5,2734.5997,2777.6412075000003,546.91994,555.5282415,-43.04150750000008,43.04150750000008,0.015739600753997038
2021-11-01,SMA,note_5,RM5,5,2727.0057325,2752.9956758333333,545.4011465,550.5991351666667,-25.989943333333485,25.989943333333485,0.009530578914297712
2021-12-01,SMA,note_5,RM5,5,2821.61233,2736.626476666667,564.322466,547.3252953333333,84.98585333333313,84.98585333333313,0.030119606591502642
2022-01-01,SMA,note_5,RM5,5,2997.88893,2761.0725875000003,599.5777860000001,552.2145175,236.8163424999998,236.8163424999998,0.07899436838041887
2022-02-01,SMA,note_5,RM5,5,2967.83837,2848.8356641666664,593.567674,569.7671328333333,119.0027058333335,119.0027058333335,0.04009743489950684
2022-03-01,SMA,note_5,RM5,5,3003.223285,2929.1132099999995,600.644657,585.8226419999999,74.1100750000005,74.1100750000005,0.024676844832068657
2022-04-01,SMA,note_5,RM5,5,3184.461155,2989.6501949999997,636.892231,597.930039,194.81096000000025,194.81096000000025,0.06117548637518244
2022-05-01,SMA,note_5,RM5,5,3179.3609325,3051.840936666667,635.8721865,610.3681873333334,127.51999583333327,127.51999583333327,0.04010868804790324
2022-06-01,SMA,note_5,RM5,5,3123.77415,3122.3484575,624.7548300000001,624.4696915000001,1.4256924999999683,1.4256924999999683,0.0004564006331891722
2022-07-01,SMA,note_5,RM5,5,3058.8396225,3162.532079166667,611.7679245,632.5064158333333,-103.69245666666666,103.69245666666666,0.03389927863622953
2022-08-01,SMA,note_5,RM5,5,2991.1551975,3120.6582350000003,598.2310395000001,624.131647,-129.50303750000012,129.50303750000012,0.04329532536734918
2022-09-01,SMA,note_5,RM5,5,2944.0221075,3057.9229900000005,588.8044215,611.5845980000001,-113.90088250000053,113.90088250000053,0.038688867929977167
2022-10-01,SMA,note_5,RM5,5,2915.8404125,2998.0056425,583.1680825000001,599.6011285,-82.16522999999961,82.16522999999961,0.02817891872537438
2022-11-01,SMA,note_5,RM5,5,2881.195025,2950.339239166666,576.239005,590.0678478333332,-69.14421416666619,69.14421416666619,0.023998449798331923
2022-12-01,SMA,note_5,RM5,5,3049.7045,2913.685848333333,609.9408999999999,582.7371696666667,136.01865166666676,136.01865166666676,0.044600600375107415
2023-01-01,SMA,note_5,RM5,5,3162.0804175,2948.9133124999994,632.4160835,589.7826624999999,213.16710500000045,213.16710500000045,0.0674135622295572
2023-02-01,SMA,note_5,RM5,5,3095.407685,3030.9933141666666,619.081537,606.1986628333333,64.41437083333358,64.41437083333358,0.02080965655848127
2023-03-01,SMA,note_5,RM5,5,3327.856805,3102.3975341666664,665.571361,620.4795068333333,225.45927083333345,225.45927083333345,0.06774909019360088
2023-04-01,SMA,note_5,RM5,5,3437.0215875,3195.1149691666665,687.4043174999999,639.0229938333333,241.90661833333343,241.90661833333343,0.07038262989476596
2023-05-01,SMA,note_5,RM5,5,3357.11783,3286.762025833333,671.423566,657.3524051666666,70.35580416666699,70.35580416666699,0.020957204283373925
2023-06-01,SMA,note_5,RM5,5,3249.0655975,3373.998740833333,649.8131195,674.7997481666666,-124.93314333333319,124.93314333333319,0.03845202246130803
2023-07-01,SMA,note_5,RM5,5,3128.4024525,3347.735005,625.6804905,669.547001,-219.33255250000002,219.33255250000002,0.07011008200838252
2023-08-01,SMA,note_5,RM5,5,3004.6177125,3244.8619599999997,600.9235424999999,648.9723919999999,-240.2442474999998,240.2442474999998,0.07995834095649525
2023-09-01,SMA,note_5,RM5,5,2952.8209825,3127.361920833333,590.5641965,625.4723841666666,-174.5409383333331,174.5409383333331,0.05910989503520744
2023-10-01,SMA,note_5,RM5,5,2918.20541,3028.613715833333,583.641082,605.7227431666666,-110.40830583333309,110.40830583333309,0.037834316068015614
2023-11-01,SMA,note_5,RM5,5,2889.9601575,2958.548035,577.9920315,591.709607,-68.58787749999965,68.58787749999965,0.023733156777957985
2023-12-01,SMA,note_5,RM5,5,2966.715245,2920.32885,593.343049,584.0657699999999,46.38639499999999,46.38639499999999,0.015635607454466023
2024-01-01,SMA,note_5,RM5,5,3196.58787,2924.960270833333,639.3175739999999,584.9920541666667,271.62759916666664,271.62759916666664,0.08497423196649578
2024-02-01,SMA,note_5,RM5,5,3136.1369075,3017.754424166667,627.2273815,603.5508848333334,118.38248333333286,118.38248333333286,0.037747868420611314
2024-03-01,SMA,note_5,RM5,5,3486.03338,3099.813340833333,697.206676,619.9626681666666,386.220039166667,386.220039166667,0.11079068874741153
2024-04-01,SMA,note_5,RM5,5,3484.1405425,3272.919385833333,696.8281085,654.5838771666665,211.22115666666696,211.22115666666696,0.06062360403955116
2024-05-01,SMA,note_5,RM5,5,3366.87739,3368.770276666666,673.375478,673.7540553333332,-1.8928866666660724,1.8928866666660724,0.0005622083751217541
2024-06-01,SMA,note_5,RM5,5,3279.02083,3445.6837708333333,655.804166,689.1367541666666,-166.66294083333332,166.66294083333332,0.050827045473002784
2024-07-01,SMA,note_5,RM5,5,3195.443485,3376.6795875000003,639.0886969999999,675.3359175,-181.23610250000047,181.23610250000047,0.05671704204776461
2024-08-01,SMA,note_5,RM5,5,3143.1840475,3280.4472349999996,628.6368095,656.089447,-137.26318749999973,137.26318749999973,0.04367010821691304
2024-09-01,SMA,note_5,RM5,5,3114.3893225,3205.8827875,622.8778645,641.1765575000001,-91.49346500000001,91.49346500000001,0.02937765819417717
2024-10-01,SMA,note_5,RM5,5,3075.1845425,3151.005618333333,615.0369085,630.2011236666666,-75.821075833333,75.821075833333,0.024655780745988513
2024-11-01,SMA,note_5,RM5,5,3052.44869,3110.919304166667,610.489738,622.1838608333335,-58.47061416666702,58.47061416666702,0.01915531434098144
2024-12-01,SMA,note_5,RM5,5,3168.7206475,3080.674185,633.7441295,616.134837,88.04646249999996,88.04646249999996,0.027786123263805307
2025-01-01,SMA,note_5,RM5,5,3302.1838175,3098.784626666667,660.4367635,619.7569253333334,203.3991908333328,203.3991908333328,0.061595356913632146
2025-02-01,SMA,note_5,RM5,5,3430.1300225,3174.4510516666664,686.0260045,634.8902103333332,255.67897083333355,255.67897083333355,0.07453914841600835
2025-03-01,SMA,note_5,RM5,5,3698.3032225,3300.3448291666664,739.6606445,660.0689658333333,397.9583933333338,397.9583933333338,0.10760566924642799
2025-04-01,SMA,note_5,RM5,5,3643.0504375,3476.8723541666664,728.6100875,695.3744708333332,166.1780833333337,166.1780833333337,0.0456150926769412
2025-05-01,SMA,note_5,RM5,5,3541.911095,3590.4945608333333,708.382219,718.0989121666667,-48.58346583333332,48.58346583333332,0.01371673780912147
2025-06-01,SMA,note_5,RM5,5,3446.206735,3627.7549183333335,689.241347,725.5509836666668,-181.54818333333333,181.54818333333333,0.05268058398514311
2025-07-01,SMA,note_5,RM5,5,3360.5612025,3543.722755833333,672.1122405,708.7445511666666,-183.1615533333329,183.1615533333329,0.05450326368020756
2025-08-01,SMA,note_5,RM5,5,3305.26214,3449.5596775,661.052428,689.9119355,-144.2975375000001,144.2975375000001,0.04365691173287699
2025-09-01,SMA,note_5,RM5,5,3265.2048775,3370.6766924999997,653.0409755,674.1353385,-105.47181499999988,105.47181499999988,0.03230174490023249
2025-10-01,SMA,note_5,RM5,5,3233.2160575,3310.34274,646.6432115,662.068548,-77.12668250000024,77.12668250000024,0.02385447836716376
2025-11-01,SMA,note_5,RM5,5,3206.8986925,3267.894358333333,641.3797385,653.5788716666666,-60.99566583333308,60.99566583333308,0.019020141165040274
2025-12-01,SMA,note_5,RM5,5,3338.4901725,3235.1065424999997,667.6980345,647.0213084999999,103.38363000000027,103.38363000000027,0.030967181168181278
2026-01-01,SMA,note_5,RM5,5,3601.3204125,3259.5349741666664,720.2640825000001,651.9069948333333,341.7854383333338,341.7854383333338,0.09490558994612473
2026-02-01,SMA,note_5,RM5,5,3765.0659175,3382.236425833333,753.0131835,676.4472851666667,382.82949166666685,382.82949166666685,0.10167935968591627
2021-02-01,SMA,note_10,RM10,10,7123.35543,6628.6282,712.3355429999999,662.86282,494.7272299999995,494.7272299999995,0.06945143126179786
2021-03-01,SMA,note_10,RM10,10,6893.192205,6913.18001,689.3192205,691.318001,-19.987804999999753,19.987804999999753,0.002899644229490878
2021-04-01,SMA,note_10,RM10,10,7248.58671,7101.066016666667,724.858671,710.1066016666666,147.52069333333293,147.52069333333293,0.020351649119381636
2021-05-01,SMA,note_10,RM10,10,7099.50651,7088.3781149999995,709.950651,708.8378114999999,11.128395000000637,11.128395000000637,0.0015674885267484087
2021-06-01,SMA,note_10,RM10,10,6846.29798,7080.428475000001,684.629798,708.0428475000001,-234.13049500000034,234.13049500000034,0.034198116366533075
2021-07-01,SMA,note_10,RM10,10,6776.52114,7064.797066666667,677.652114,706.4797066666667,-288.27592666666715,288.27592666666715,0.04254040099794733
2021-08-01,SMA,note_10,RM10,10,6723.578235,6907.441876666668,672.3578235,690.7441876666668,-183.86364166666772,183.86364166666772,0.027346099835583712
2021-09-01,SMA,note_10,RM10,10,6697.01523,6782.132451666667,669.701523,678.2132451666668,-85.11722166666732,85.11722166666732,0.012709724966037941
2021-10-01,SMA,note_10,RM10,10,6708.285375,6732.371535000001,670.8285375,673.2371535000001,-24.086160000000746,24.086160000000746,0.003590509147056187
2021-11-01,SMA,note_10,RM10,10,6691.83206,6709.62628,669.1832059999999,670.962628,-17.794220000000678,17.794220000000678,0.0026590954226667603
2021-12-01,SMA,note_10,RM10,10,6997.022465,6699.044221666667,699.7022465,669.9044221666667,297.978243333333,297.978243333333,0.042586435133495464
2022-01-01,SMA,note_10,RM10,10,7667.44901,6799.046633333334,766.744901,679.9046633333335,868.402376666666,868.402376666666,0.113258317796973
2022-02-01,SMA,note_10,RM10,10,7404.96555,7118.767845000001,740.496555,711.8767845000001,286.1977049999987,286.1977049999987,0.03864943098891239
2022-03-01,SMA,note_10,RM10,10,7377.25925,7356.479008333333,737.725925,735.6479008333333,20.78024166666728,20.78024166666728,0.002816796992279657
2022-04-01,SMA,note_10,RM10,10,7810.064915,7483.224603333333,781.0064915,748.3224603333333,326.8403116666668,326.8403116666668,0.04184860372145407
2022-05-01,SMA,note_10,RM10,10,7640.560155,7530.763238333333,764.0560155000001,753.0763238333333,109.79691666666713,109.79691666666713,0.01437027056122525
2022-06-01,SMA,note_10,RM10,10,7341.388415,7609.294773333334,734.1388415,760.9294773333334,-267.9063583333336,267.9063583333336,0.03649260101617081
2022-07-01,SMA,note_10,RM10,10,7200.5891,7597.337828333334,720.05891,759.7337828333334,-396.74872833333393,396.74872833333393,0.055099481837303274
2022-08-01,SMA,note_10,RM10,10,7095.97118,7394.1792233333335,709.5971179999999,739.4179223333333,-298.208043333334,298.208043333334,0.0420249794945382
2022-09-01,SMA,note_10,RM10,10,7035.35796,7212.649565,703.535796,721.2649564999999,-177.29160499999944,177.29160499999944,0.025200083067272873
2022-10-01,SMA,note_10,RM10,10,7023.750095,7110.639413333333,702.3750095,711.0639413333333,-86.889318333333,86.889318333333,0.012370787280029641
2022-11-01,SMA,note_10,RM10,10,7006.460815,7051.693078333334,700.6460815,705.1693078333334,-45.23226333333332,45.23226333333332,0.006455793378091321
2022-12-01,SMA,note_10,RM10,10,7770.010525,7021.856290000001,777.0010525,702.1856290000001,748.1542349999991,748.1542349999991,0.09628741590411155
2023-01-01,SMA,note_10,RM10,10,8115.95881,7266.740478333333,811.595881,726.6740478333334,849.2183316666669,849.2183316666669,0.10463561380083777
2023-02-01,SMA,note_10,RM10,10,7753.820635,7630.81005,775.3820635,763.081005,123.01058499999999,123.01058499999999,0.0158645125790945
2023-03-01,SMA,note_10,RM10,10,8131.75874,7879.92999,813.175874,787.9929989999999,251.82875000000058,251.82875000000058,0.03096854666399025
2023-04-01,SMA,note_10,RM10,10,8289.401635,8000.512728333334,828.9401635,800.0512728333334,288.8889066666661,288.8889066666661,0.03485039323549029
2023-05-01,SMA,note_10,RM10,10,7748.897005,8058.327003333335,774.8897005,805.8327003333335,-309.4299983333349,309.4299983333349,0.03993213461653629
2023-06-01,SMA,note_10,RM10,10,7529.41836,8056.685793333334,752.941836,805.6685793333334,-527.2674333333343,527.2674333333343,0.07002764464974348
2023-07-01,SMA,note_10,RM10,10,7333.54532,7855.905666666667,733.3545320000001,785.5905666666666,-522.3603466666664,522.3603466666664,0.07122889733047513
2023-08-01,SMA,note_10,RM10,10,7210.06102,7537.286895,721.006102,753.7286895,-327.2258750000001,327.2258750000001,0.045384619366231116
2023-09-01,SMA,note_10,RM10,10,7174.920425,7357.674900000001,717.4920425,735.7674900000001,-182.75447500000064,182.75447500000064,0.025471289460328842
2023-10-01,SMA,note_10,RM10,10,7136.48343,7239.508921666667,713.6483430000001,723.9508921666668,-103.02549166666722,103.02549166666722,0.014436450764192024
2023-11-01,SMA,note_10,RM10,10,7106.64855,7173.8216250000005,710.664855,717.3821625,-67.17307500000061,67.17307500000061,0.009452145343531953
2023-12-01,SMA,note_10,RM10,10,7449.423375,7139.350801666667,744.9423375,713.9350801666667,310.0725733333329,310.0725733333329,0.041623701288602474
2024-01-01,SMA,note_10,RM10,10,8302.65177,7230.851785,830.265177,723.0851785,1071.7999850000006,1071.7999850000006,0.12909128489198343
2024-02-01,SMA,note_10,RM10,10,8109.682735,7619.574565,810.9682735,761.9574565,490.1081700000004,490.1081700000004,0.06043493759438672
2024-03-01,SMA,note_10,RM10,10,8491.70266,7953.919293333335,849.1702660000001,795.3919293333336,537.7833666666656,537.7833666666656,0.06333045187744074
2024-04-01,SMA,note_10,RM10,10,8187.651815,8301.345721666667,818.7651815,830.1345721666667,-113.69390666666641,113.69390666666641,0.013886021198211689
2024-05-01,SMA,note_10,RM10,10,7830.93608,8263.012403333334,783.093608,826.3012403333335,-432.0763233333337,432.0763233333337,0.05517556508178441
2024-06-01,SMA,note_10,RM10,10,7706.788315,8170.096851666666,770.6788315,817.0096851666666,-463.30853666666644,463.30853666666644,0.060116940770893156
2024-07-01,SMA,note_10,RM10,10,7548.51475,7908.458736666667,754.851475,790.8458736666668,-359.9439866666671,359.9439866666671,0.047684080721530964
2024-08-01,SMA,note_10,RM10,10,7487.16185,7695.413048333333,748.716185,769.5413048333332,-208.25119833333247,208.25119833333247,0.027814437901236562
2024-09-01,SMA,note_10,RM10,10,7442.69883,7580.821638333334,744.269883,758.0821638333334,-138.12280833333352,138.12280833333352,0.018558161694866473
2024-10-01,SMA,note_10,RM10,10,7402.066905,7492.79181,740.2066904999999,749.279181,-90.72490500000004,90.72490500000004,0.012256698860519154
2024-11-01,SMA,note_10,RM10,10,7451.65808,7443.975861666667,745.165808,744.3975861666667,7.682218333333367,7.682218333333367,0.0010309407987937856
2024-12-01,SMA,note_10,RM10,10,7774.32942,7432.141271666667,777.432942,743.2141271666667,342.1881483333327,342.1881483333327,0.04401513363365206
2025-01-01,SMA,note_10,RM10,10,8671.533525,7542.684801666666,867.1533525000001,754.2684801666667,1128.8487233333344,1128.8487233333344,0.1301786725587657
2025-02-01,SMA,note_10,RM10,10,8538.190705,7965.840341666667,853.8190705000001,796.5840341666667,572.3503633333339,572.3503633333339,0.06703415080646571
2025-03-01,SMA,note_10,RM10,10,8906.89582,8328.017883333334,890.689582,832.8017883333334,578.8779366666658,578.8779366666658,0.06499210817834242
2025-04-01,SMA,note_10,RM10,10,8743.021025,8705.540016666668,874.3021025,870.5540016666667,37.481008333332284,37.481008333332284,0.004286963079027055
2025-05-01,SMA,note_10,RM10,10,8563.33757,8729.369183333334,856.333757,872.9369183333334,-166.03161333333446,166.03161333333446,0.01938865681472072
2025-06-01,SMA,note_10,RM10,10,8464.03205,8737.751471666665,846.403205,873.7751471666664,-273.71942166666486,273.71942166666486,0.0323391286859157
2025-07-01,SMA,note_10,RM10,10,8149.19954,8590.130215,814.919954,859.0130214999999,-440.9306749999996,440.9306749999996,0.054107237506666774
2025-08-01,SMA,note_10,RM10,10,8076.924305,8392.18972,807.6924305,839.218972,-315.26541500000076,315.26541500000076,0.03903285496990934
2025-09-01,SMA,note_10,RM10,10,8015.28062,8230.051965,801.5280620000001,823.0051965,-214.7713450000001,214.7713450000001,0.02679523714542138
2025-10-01,SMA,note_10,RM10,10,8021.430935,8080.468155,802.1430935000001,808.0468155,-59.03721999999925,59.03721999999925,0.007359936210682995
2025-11-01,SMA,note_10,RM10,10,8011.4198,8037.87862,801.14198,803.787862,-26.458820000000742,26.458820000000742,0.0033026380667257934
2025-12-01,SMA,note_10,RM10,10,8357.020215,8016.043784999999,835.7020215,801.6043784999999,340.9764300000015,340.9764300000015,0.04080119722433883
2026-01-01,SMA,note_10,RM10,10,9187.221095,8129.9569833333335,918.7221095000001,812.9956983333334,1057.2641116666673,1057.2641116666673,0.11507985937576559
2026-02-01,SMA,note_10,RM10,10,9630.124815,8518.553703333333,963.0124814999999,851.8553703333333,1111.5711116666662,1111.5711116666662,0.11542644908768675
2021-02-01,SMA,note_20,RM20,20,3795.36636,3567.1502,189.768318,178.35751,228.21615999999995,228.21615999999995,0.06013020571747913
2021-03-01,SMA,note_20,RM20,20,3764.46093,3688.9056533333332,188.2230465,184.44528266666666,75.55527666666694,75.55527666666694,0.02007067627254321
2021-04-01,SMA,note_20,RM20,20,3928.7007,3775.01383,196.435035,188.7506915,153.68687,153.68687,0.039119006953113024
2021-05-01,SMA,note_20,RM20,20,3909.10911,3829.5093299999994,195.4554555,191.47546649999998,79.59978000000046,79.59978000000046,0.02036263960920765
2021-06-01,SMA,note_20,RM20,20,3739.73201,3867.42358,186.9866005,193.371179,-127.69156999999996,127.69156999999996,0.03414457764849304
2021-07-01,SMA,note_20,RM20,20,3756.17817,3859.180606666667,187.8089085,192.95903033333335,-103.00243666666665,103.00243666666665,0.027422138142788537
2021-08-01,SMA,note_20,RM20,20,3761.69222,3801.673096666667,188.084611,190.08365483333336,-39.98087666666697,39.98087666666697,0.010628428464747436
2021-09-01,SMA,note_20,RM20,20,3777.97089,3752.534133333333,188.8985445,187.62670666666665,25.436756666666952,25.436756666666952,0.006732914944897035
2021-10-01,SMA,note_20,RM20,20,3842.17164,3765.2804266666667,192.108582,188.26402133333335,76.89121333333333,76.89121333333333,0.02001243581438057
2021-11-01,SMA,note_20,RM20,20,3854.75403,3793.944916666667,192.73770150000001,189.69724583333334,60.809113333333244,60.809113333333244,0.01577509559885803
2021-12-01,SMA,note_20,RM20,20,3948.75171,3824.96552,197.4375855,191.248276,123.7861899999998,123.7861899999998,0.031348182689359266
2022-01-01,SMA,note_20,RM20,20,4161.67144,3881.8924599999996,208.083572,194.09462299999998,279.7789800000005,279.7789800000005,0.06722755124561215
2022-02-01,SMA,note_20,RM20,20,3979.95635,3988.392393333333,198.9978175,199.41961966666665,-8.436043333333146,8.436043333333146,0.0021196321244410497
2022-03-01,SMA,note_20,RM20,20,3955.56584,4030.1265,197.77829200000002,201.506325,-74.56065999999964,74.56065999999964,0.01884955604733396
2022-04-01,SMA,note_20,RM20,20,4346.10289,4032.3978766666664,217.3051445,201.61989383333332,313.7050133333337,313.7050133333337,0.07218076085017253
2022-05-01,SMA,note_20,RM20,20,4212.00448,4093.8750266666666,210.60022399999997,204.69375133333332,118.129453333333,118.129453333333,0.028045899261088397
2022-06-01,SMA,note_20,RM20,20,4064.03972,4171.224403333333,203.201986,208.56122016666663,-107.18468333333249,107.18468333333249,0.026373926122290083
2022-07-01,SMA,note_20,RM20,20,3992.5679,4207.382363333333,199.628395,210.36911816666665,-214.81446333333315,214.81446333333315,0.05380358423793698
2022-08-01,SMA,note_20,RM20,20,3937.19959,4089.537366666667,196.8599795,204.47686833333336,-152.33777666666674,152.33777666666674,0.03869191113744547
2022-09-01,SMA,note_20,RM20,20,3872.64855,3997.935736666667,193.6324275,199.89678683333335,-125.28718666666691,125.28718666666691,0.03235180911695871
2022-10-01,SMA,note_20,RM20,20,3853.13291,3934.13868,192.6566455,196.706934,-81.00577000000021,81.00577000000021,0.021023352137624605
2022-11-01,SMA,note_20,RM20,20,3801.69097,3887.6603499999997,190.0845485,194.3830175,-85.96937999999955,85.96937999999955,0.022613458242240963
2022-12-01,SMA,note_20,RM20,20,3938.52526,3842.49081,196.926263,192.1245405,96.0344500000001,96.0344500000001,0.024383352564812572
2023-01-01,SMA,note_20,RM20,20,4108.11204,3864.449713333333,205.405602,193.22248566666664,243.662326666667,243.662326666667,0.05931248327556982
2023-02-01,SMA,note_20,RM20,20,3883.90496,3949.442756666667,194.195248,197.47213783333333,-65.53779666666696,65.53779666666696,0.016874201954382263
2023-03-01,SMA,note_20,RM20,20,3952.74668,3976.84742,197.637334,198.842371,-24.10073999999986,24.10073999999986,0.006097213393902555
2023-04-01,SMA,note_20,RM20,20,4151.24711,3981.5878933333333,207.56235550000002,199.07939466666667,169.6592166666669,169.6592166666669,0.04086945733921075
2023-05-01,SMA,note_20,RM20,20,3901.84747,3995.96625,195.0923735,199.7983125,-94.11877999999979,94.11877999999979,0.02412159386640498
2023-06-01,SMA,note_20,RM20,20,3863.2806,4001.947086666667,193.16403,200.09735433333336,-138.66648666666697,138.66648666666697,0.03589345455949199
2023-07-01,SMA,note_20,RM20,20,3800.28187,3972.1250600000003,190.0140935,198.606253,-171.8431900000005,171.8431900000005,0.04521853796071198
2023-08-01,SMA,note_20,RM20,20,3768.30614,3855.1366466666664,188.415307,192.7568323333333,-86.83050666666622,86.83050666666622,0.023042317540226766
2023-09-01,SMA,note_20,RM20,20,3802.20631,3810.6228699999997,190.1103155,190.53114349999998,-8.416559999999663,8.416559999999663,0.0022135989774841186
2023-10-01,SMA,note_20,RM20,20,3807.21869,3790.264773333333,190.3609345,189.51323866666664,16.953916666667283,16.953916666667283,0.0044530976671233145
2023-11-01,SMA,note_20,RM20,20,3812.03863,3792.577046666667,190.6019315,189.62885233333333,19.461583333333238,19.461583333333238,0.005105295413371306
2023-12-01,SMA,note_20,RM20,20,3960.22291,3807.1545433333335,198.0111455,190.35772716666668,153.0683666666664,153.0683666666664,0.038651452240264526
2024-01-01,SMA,note_20,RM20,20,4126.80526,3859.8267433333335,206.340263,192.99133716666668,266.97851666666656,266.97851666666656,0.06469375215118985
2024-02-01,SMA,note_20,RM20,20,4076.71577,3966.3556000000003,203.83578849999998,198.31778000000003,110.36016999999947,110.36016999999947,0.027070852182564466
2024-03-01,SMA,note_20,RM20,20,4280.04983,4054.5813133333336,214.0024915,202.72906566666668,225.46851666666635,225.46851666666635,0.052678946652980056
2024-04-01,SMA,note_20,RM20,20,4271.6776,4161.190286666667,213.58388,208.05951433333334,110.48731333333308,110.48731333333308,0.025865087134228734
2024-05-01,SMA,note_20,RM20,20,4149.07097,4209.481066666666,207.45354849999998,210.4740533333333,-60.410096666666504,60.410096666666504,0.014559909219067059
2024-06-01,SMA,note_20,RM20,20,4166.23755,4233.599466666667,208.31187749999998,211.67997333333332,-67.36191666666673,67.36191666666673,0.01616852516406961
2024-07-01,SMA,note_20,RM20,20,4126.42479,4195.662039999999,206.3212395,209.78310199999996,-69.23724999999922,69.23724999999922,0.016778992353814165
2024-08-01,SMA,note_20,RM20,20,4125.40543,4147.244436666667,206.27027149999998,207.36222183333334,-21.839006666667046,21.839006666667046,0.005293784341256139
2024-09-01,SMA,note_20,RM20,20,4156.90125,4139.355923333333,207.84506249999998,206.96779616666663,17.54532666666728,17.54532666666728,0.004220770620102481
2024-10-01,SMA,note_20,RM20,20,4127.3909,4136.243823333333,206.36954500000002,206.81219116666665,-8.85292333333291,8.85292333333291,0.0021449200106859055
2024-11-01,SMA,note_20,RM20,20,4149.79859,4136.56586,207.48992950000002,206.82829299999997,13.232730000000629,13.232730000000629,0.00318876439735853
2024-12-01,SMA,note_20,RM20,20,4363.73578,4144.696913333334,218.186789,207.2348456666667,219.03886666666585,219.03886666666585,0.050195263349942294
2025-01-01,SMA,note_20,RM20,20,4704.26146,4213.641756666667,235.21307299999998,210.68208783333336,490.61970333333284,490.61970333333284,0.10429260947866892
2025-02-01,SMA,note_20,RM20,20,4641.06973,4405.931943333333,232.05348650000002,220.29659716666666,235.13778666666713,235.13778666666713,0.05066456665081546
2025-03-01,SMA,note_20,RM20,20,4889.31201,4569.68899,244.4656005,228.48444949999998,319.62302,319.62302,0.06537177814512189
2025-04-01,SMA,note_20,RM20,20,4680.79038,4744.881066666667,234.039519,237.24405333333334,-64.09068666666644,64.09068666666644,0.013692278752860203
2025-05-01,SMA,note_20,RM20,20,4540.1281,4737.057373333334,227.006405,236.8528686666667,-196.9292733333341,196.9292733333341,0.043375268053193056
2025-06-01,SMA,note_20,RM20,20,4458.61571,4703.410163333333,222.9307855,235.17050816666665,-244.79445333333297,244.79445333333297,0.0549036896775598
2025-07-01,SMA,note_20,RM20,20,4411.28766,4559.84473,220.564383,227.9922365,-148.55706999999984,148.55706999999984,0.033676577328443785
2025-08-01,SMA,note_20,RM20,20,4405.73977,4470.01049,220.2869885,223.50052449999998,-64.27071999999953,64.27071999999953,0.014587951934346664
2025-09-01,SMA,note_20,RM20,20,4386.14733,4425.21438,219.3073665,221.26071900000002,-39.06705000000056,39.06705000000056,0.00890691695027959
2025-10-01,SMA,note_20,RM20,20,4440.66839,4401.058253333334,222.03341949999998,220.05291266666669,39.61013666666622,39.61013666666622,0.008919859171620383
2025-11-01,SMA,note_20,RM20,20,4444.81738,4410.85183,222.24086900000003,220.5425915,33.9655500000008,33.9655500000008,0.007641607538890788
2025-12-01,SMA,note_20,RM20,20,4633.77883,4423.8777,231.6889415,221.193885,209.9011300000002,209.9011300000002,0.04529804673478561
2026-01-01,SMA,note_20,RM20,20,4865.7854,4506.421533333333,243.28927,225.32107666666667,359.3638666666666,359.3638666666666,0.07385526428409
2026-02-01,SMA,note_20,RM20,20,5047.2573,4648.1272033333335,252.362865,232.40636016666667,399.13009666666676,399.13009666666676,0.07907861100456812
2021-02-01,SMA,note_50,RM50,50,62524.219875,57066.74346666667,1250.4843975000001,1141.3348693333332,5457.476408333336,5457.476408333336,0.08728579771557422
2021-03-01,SMA,note_50,RM50,50,63501.245425,59856.55009166667,1270.0249085,1197.1310018333334,3644.6953333333295,3644.6953333333295,0.05739565120243198
2021-04-01,SMA,note_50,RM50,50,65557.5046,62347.71609166666,1311.150092,1246.9543218333333,3209.7885083333385,3209.7885083333385,0.04896141986974499
2021-05-01,SMA,note_50,RM50,50,66160.1593,63860.98996666667,1323.203186,1277.2197993333334,2299.1693333333315,2299.1693333333315,0.03475156888464946
2021-06-01,SMA,note_50,RM50,50,65362.572,65072.969775000005,1307.25144,1301.4593955,289.6022249999951,289.6022249999951,0.00443070424156496
2021-07-01,SMA,note_50,RM50,50,66535.27805,65693.41196666667,1330.7055609999998,1313.8682393333333,841.866083333327,841.866083333327,0.012652928010621383
2021-08-01,SMA,note_50,RM50,50,67528.902925,66019.33644999999,1350.5780585,1320.3867289999998,1509.5664750000142,1509.5664750000142,0.02235437582447611
2021-09-01,SMA,note_50,RM50,50,68567.81265,66475.584325,1371.3562530000002,1329.5116865,2092.2283250000037,2092.2283250000037,0.03051327210450257
2021-10-01,SMA,note_50,RM50,50,69390.046025,67543.997875,1387.8009205,1350.8799575,1846.0481500000024,1846.0481500000024,0.026603933211615163
2021-11-01,SMA,note_50,RM50,50,69055.268275,68495.58720000001,1381.1053654999998,1369.9117440000002,559.6810749999859,559.6810749999859,0.008104828045431063
2021-12-01,SMA,note_50,RM50,50,70550.155125,69004.37565,1411.0031025,1380.087513,1545.779475000003,1545.779475000003,0.021910362525230563
2022-01-01,SMA,note_50,RM50,50,72883.797725,69665.15647500001,1457.6759545,1393.3031295000003,3218.641249999986,3218.641249999986,0.04416127247024553
2022-02-01,SMA,note_50,RM50,50,70169.5812,70829.74037500001,1403.391624,1416.5948075000001,-660.159175000008,660.159175000008,0.009408053514220032
2022-03-01,SMA,note_50,RM50,50,69735.686725,71201.17801666667,1394.7137345,1424.0235603333335,-1465.4912916666653,1465.4912916666653,0.021014940276501096
2022-04-01,SMA,note_50,RM50,50,78008.8334,70929.68855,1560.176668,1418.593771,7079.144849999997,7079.144849999997,0.09074799021414409
2022-05-01,SMA,note_50,RM50,50,74151.031725,72638.033775,1483.0206345,1452.7606755000002,1512.99794999999,1512.99794999999,0.020404273747817364
2022-06-01,SMA,note_50,RM50,50,72526.793825,73965.18394999999,1450.5358765,1479.3036789999999,-1438.3901249999908,1438.3901249999908,0.019832534283408202
2022-07-01,SMA,note_50,RM50,50,71209.298925,74895.55298333334,1424.1859785,1497.911059666667,-3686.2540583333466,3686.2540583333466,0.05176647030629851
2022-08-01,SMA,note_50,RM50,50,70650.00215,72629.04149166668,1413.000043,1452.5808298333336,-1979.0393416666775,1979.0393416666775,0.028011879425918425
2022-09-01,SMA,note_50,RM50,50,69954.733025,71462.03163333333,1399.0946605,1429.2406326666667,-1507.298608333338,1507.298608333338,0.02154677093535142
2022-10-01,SMA,note_50,RM50,50,69939.5144,70604.67803333333,1398.790288,1412.0935606666667,-665.1636333333299,665.1636333333299,0.009510555499843875
2022-11-01,SMA,note_50,RM50,50,69677.643325,70181.416525,1393.5528665,1403.6283305,-503.773199999996,503.773199999996,0.007230055093141255
2022-12-01,SMA,note_50,RM50,50,71074.59975,69857.29691666666,1421.4919949999999,1397.145938333333,1217.302833333335,1217.302833333335,0.017127114856996927
2023-01-01,SMA,note_50,RM50,50,72679.8847,70230.585825,1453.5976939999998,1404.6117165,2449.298874999993,2449.298874999993,0.03369981783969442
2023-02-01,SMA,note_50,RM50,50,68584.9783,71144.04259166667,1371.699566,1422.8808518333335,-2559.0642916666693,2559.0642916666693,0.03731231466565426
2023-03-01,SMA,note_50,RM50,50,69031.57565,70779.82091666666,1380.631513,1415.5964183333333,-1748.245266666665,1748.245266666665,0.025325298607270962
2023-04-01,SMA,note_50,RM50,50,71599.928525,70098.81288333333,1431.9985705,1401.9762576666667,1501.1156416666636,1501.1156416666636,0.020965323186636013
2023-05-01,SMA,note_50,RM50,50,67469.1893,69738.82749166667,1349.3837859999999,1394.7765498333333,-2269.6381916666724,2269.6381916666724,0.03363962447473298
2023-06-01,SMA,note_50,RM50,50,67954.151275,69366.89782500001,1359.0830254999998,1387.3379565000002,-1412.7465500000108,1412.7465500000108,0.02078970193127485
2023-07-01,SMA,note_50,RM50,50,66806.8621,69007.75636666665,1336.137242,1380.155127333333,-2200.8942666666553,2200.8942666666553,0.03294413474131208
2023-08-01,SMA,note_50,RM50,50,66476.65415,67410.06755833334,1329.533083,1348.2013511666667,-933.4134083333338,933.4134083333338,0.014041221241778363
2023-09-01,SMA,note_50,RM50,50,66598.600825,67079.22250833333,1331.9720165,1341.5844501666666,-480.621683333331,480.621683333331,0.007216693404659542
2023-10-01,SMA,note_50,RM50,50,66344.389775,66627.37235833333,1326.8877955,1332.5474471666666,-282.9825833333307,282.9825833333307,0.00426535814547449
2023-11-01,SMA,note_50,RM50,50,66189.390775,66473.21491666666,1323.7878155,1329.4642983333333,-283.82414166665694,283.82414166665694,0.004288060946677552
2023-12-01,SMA,note_50,RM50,50,67668.02185,66377.46045833333,1353.360437,1327.5492091666665,1290.561391666677,1290.561391666677,0.019071953876935697
2024-01-01,SMA,note_50,RM50,50,69037.047,66733.93413333334,1380.7409400000001,1334.6786826666669,2303.1128666666627,2303.1128666666627,0.03336053563627457
2024-02-01,SMA,note_50,RM50,50,69442.71655,67631.48654166667,1388.854331,1352.6297308333335,1811.2300083333248,1811.2300083333248,0.026082361092962237
2024-03-01,SMA,note_50,RM50,50,69586.5102,68715.92846666668,1391.7302040000002,1374.3185693333335,870.5817333333252,870.5817333333252,0.012510783064579162
2024-04-01,SMA,note_50,RM50,50,68237.70795,69355.42458333333,1364.7541589999998,1387.1084916666666,-1117.7166333333298,1117.7166333333298,0.016379750535471055
2024-05-01,SMA,note_50,RM50,50,67839.466475,69088.97823333333,1356.7893295,1381.7795646666666,-1249.511758333334,1249.511758333334,0.018418655441428042
2024-06-01,SMA,note_50,RM50,50,68208.4802,68554.56154166667,1364.1696040000002,1371.0912308333334,-346.08134166666423,346.08134166666423,0.005073875574589686
2024-07-01,SMA,note_50,RM50,50,67303.8575,68095.21820833332,1346.07715,1361.9043641666663,-791.360708333319,791.360708333319,0.011758029000541598
2024-08-01,SMA,note_50,RM50,50,67374.776325,67783.934725,1347.4955264999999,1355.6786945,-409.15840000000026,409.15840000000026,0.006072872109086
2024-09-01,SMA,note_50,RM50,50,67275.8098,67629.03800833334,1345.516196,1352.5807601666668,-353.2282083333412,353.2282083333412,0.005250449000665037
2024-10-01,SMA,note_50,RM50,50,66997.834175,67318.14787500001,1339.9566834999998,1346.3629575000002,-320.31370000001334,320.31370000001334,0.0047809560405094
2024-11-01,SMA,note_50,RM50,50,66858.54425,67216.1401,1337.1708850000002,1344.3228020000001,-357.5958499999979,357.5958499999979,0.005348543765219624
2024-12-01,SMA,note_50,RM50,50,69193.5498,67044.06274166667,1383.8709959999999,1340.8812548333333,2149.487058333325,2149.487058333325,0.031064847294961662
2025-01-01,SMA,note_50,RM50,50,72501.209875,67683.30940833333,1450.0241975,1353.6661881666666,4817.900466666673,4817.900466666673,0.06645269058231248
2025-02-01,SMA,note_50,RM50,50,69872.399175,69517.76797500001,1397.4479835,1390.3553595000003,354.6311999999889,354.6311999999889,0.005075411810488886
2025-03-01,SMA,note_50,RM50,50,71673.508125,70522.38628333334,1433.4701624999998,1410.4477256666669,1151.1218416666525,1151.1218416666525,0.01606063204913974
2025-04-01,SMA,note_50,RM50,50,68913.75035,71349.03905833334,1378.275007,1426.9807811666667,-2435.2887083333335,2435.2887083333335,0.03533821183675187
2025-05-01,SMA,note_50,RM50,50,68174.5496,70153.21921666666,1363.490992,1403.0643843333332,-1978.6696166666661,1978.6696166666661,0.029023581795202154
2025-06-01,SMA,note_50,RM50,50,67291.029175,69587.26935833333,1345.8205835,1391.7453871666667,-2296.240183333328,2296.240183333328,0.034124016402864416
2025-07-01,SMA,note_50,RM50,50,67075.795925,68126.44304166667,1341.5159185,1362.5288608333335,-1050.6471166666743,1050.6471166666743,0.015663580315043044
2025-08-01,SMA,note_50,RM50,50,67461.628025,67513.79156666667,1349.2325604999999,1350.2758313333334,-52.16354166666861,52.16354166666861,0.0007732327723745088
2025-09-01,SMA,note_50,RM50,50,67094.934575,67276.15104166667,1341.8986915,1345.5230208333335,-181.21646666666493,181.21646666666493,0.0027008963912782073
2025-10-01,SMA,note_50,RM50,50,67957.8299,67210.786175,1359.156598,1344.2157235,747.0437249999959,747.0437249999959,0.010992754272749311
2025-11-01,SMA,note_50,RM50,50,67407.160175,67504.7975,1348.1432035,1350.09595,-97.63732500000333,97.63732500000333,0.0014484711230456956
2025-12-01,SMA,note_50,RM50,50,69060.76385,67486.64155,1381.215277,1349.732831,1574.1223000000027,1574.1223000000027,0.022793294082570484
2026-01-01,SMA,note_50,RM50,50,70449.445525,68141.91797499999,1408.9889105,1362.8383594999998,2307.5275500000134,2307.5275500000134,0.03275437489683512
2026-02-01,SMA,note_50,RM50,50,72273.7951,68972.45651666667,1445.4759020000001,1379.4491303333334,3301.3385833333305,3301.3385833333305,0.04567822374299714
2021-02-01,SMA,note_100,RM100,100,56190.577925,55533.2897,561.90577925,555.332897,657.2882249999966,657.2882249999966,0.011697481130685427
2021-03-01,SMA,note_100,RM100,100,55789.976975,55904.21567499999,557.89976975,559.0421567499999,-114.23869999999442,114.23869999999442,0.0020476563389009075
2021-04-01,SMA,note_100,RM100,100,55874.937075,56027.174425,558.74937075,560.27174425,-152.23734999999579,152.23734999999579,0.0027246088849397737
2021-05-01,SMA,note_100,RM100,100,55675.315575,55951.830658333325,556.75315575,559.5183065833332,-276.5150833333246,276.5150833333246,0.004966565173049306
2021-06-01,SMA,note_100,RM100,100,55341.083625,55780.07654166667,553.41083625,557.8007654166666,-438.99291666666977,438.99291666666977,0.007932495858616643
2021-07-01,SMA,note_100,RM100,100,55600.351725,55630.445425000005,556.00351725,556.30445425,-30.0937000000049,30.0937000000049,0.0005412501731796356
2021-08-01,SMA,note_100,RM100,100,56064.855175,55538.916975,560.64855175,555.38916975,525.9381999999969,525.9381999999969,0.00938088929969303
2021-09-01,SMA,note_100,RM100,100,56465.700525,55668.76350833333,564.65700525,556.6876350833332,796.9370166666704,796.9370166666704,0.014113647918240723
2021-10-01,SMA,note_100,RM100,100,57186.186925,56043.635808333325,571.86186925,560.4363580833333,1142.5511166666765,1142.5511166666765,0.019979494666520405
2021-11-01,SMA,note_100,RM100,100,57619.349325,56572.24754166667,576.1934932500001,565.7224754166667,1047.1017833333317,1047.1017833333317,0.01817274571129204
2021-12-01,SMA,note_100,RM100,100,58697.027275,57090.41225833333,586.97027275,570.9041225833333,1606.6150166666703,1606.6150166666703,0.02737131829759551
2022-01-01,SMA,note_100,RM100,100,60914.775025,57834.187841666666,609.1477502500001,578.3418784166666,3080.5871833333367,3080.5871833333367,0.050572085049465164
2022-02-01,SMA,note_100,RM100,100,60567.783875,59077.050541666664,605.67783875,590.7705054166667,1490.7333333333372,1490.7333333333372,0.024612644510981576
2022-03-01,SMA,note_100,RM100,100,60746.97405,60059.86205833333,607.4697405,600.5986205833333,687.1119916666648,687.1119916666648,0.011311048861480943
2022-04-01,SMA,note_100,RM100,100,64286.8422,60743.177650000005,642.868422,607.4317765000001,3543.664549999994,3543.664549999994,0.05512270363156824
2022-05-01,SMA,note_100,RM100,100,63977.48115,61867.20004166666,639.7748114999999,618.6720004166666,2110.2811083333363,2110.2811083333363,0.03298474823329828
2022-06-01,SMA,note_100,RM100,100,64448.42875,63003.7658,644.4842874999999,630.037658,1444.662949999998,1444.662949999998,0.02241579784053305
2022-07-01,SMA,note_100,RM100,100,64707.64125,64237.584033333325,647.0764125000001,642.3758403333333,470.05721666667523,470.05721666667523,0.007264323155446116
2022-08-01,SMA,note_100,RM100,100,65214.6334,64377.85038333334,652.146334,643.7785038333334,836.7830166666608,836.7830166666608,0.012831215526953509
2022-09-01,SMA,note_100,RM100,100,65663.0437,64790.23446666667,656.6304369999999,647.9023446666666,872.8092333333261,872.8092333333261,0.013292244528307271
2022-10-01,SMA,note_100,RM100,100,66833.00835,65195.10611666666,668.3300835,651.9510611666666,1637.9022333333414,1637.9022333333414,0.024507384506107472
2022-11-01,SMA,note_100,RM100,100,67909.9995,65903.56181666667,679.099995,659.0356181666667,2006.4376833333372,2006.4376833333372,0.029545541129525954
2022-12-01,SMA,note_100,RM100,100,68864.2238,66802.01718333333,688.642238,668.0201718333333,2062.2066166666773,2062.2066166666773,0.029945979245418825
2023-01-01,SMA,note_100,RM100,100,70600.14335,67869.07721666667,706.0014335,678.6907721666668,2731.0661333333264,2731.0661333333264,0.03868357773431244
2023-02-01,SMA,note_100,RM100,100,68820.3338,69124.78888333334,688.2033379999999,691.2478888333334,-304.45508333334874,304.45508333334874,0.004423911749950692
2023-03-01,SMA,note_100,RM100,100,68965.4881,69428.23365,689.654881,694.2823364999999,-462.74554999999236,462.74554999999236,0.006709813310231503
2023-04-01,SMA,note_100,RM100,100,70125.69335,69461.98841666667,701.2569335000001,694.6198841666668,663.7049333333271,663.7049333333271,0.009464504400986819
2023-05-01,SMA,note_100,RM100,100,69001.82625,69303.83841666665,690.0182625,693.0383841666666,-302.0121666666528,302.0121666666528,0.004376872078319127
2023-06-01,SMA,note_100,RM100,100,69827.05075,69364.33589999999,698.2705074999999,693.6433589999999,462.71485000000393,462.71485000000393,0.0066265844687705645
2023-07-01,SMA,note_100,RM100,100,69755.6866,69651.52345,697.556866,696.5152344999999,104.16315000000759,104.16315000000759,0.0014932567519163032
2023-08-01,SMA,note_100,RM100,100,70026.0441,69528.18786666666,700.260441,695.2818786666666,497.85623333333933,497.85623333333933,0.0071095867220827245
2023-09-01,SMA,note_100,RM100,100,70231.32715,69869.59381666666,702.3132714999999,698.6959381666666,361.7333333333372,361.7333333333372,0.005150598002523112
2023-10-01,SMA,note_100,RM100,100,70589.81095,70004.35261666666,705.8981095,700.0435261666665,585.458333333343,585.458333333343,0.008293807922903115
2023-11-01,SMA,note_100,RM100,100,71187.89835,70282.39406666666,711.8789835,702.8239406666667,905.5042833333428,905.5042833333428,0.012719918754749173
2023-12-01,SMA,note_100,RM100,100,72345.3796,70669.67881666665,723.453796,706.6967881666665,1675.7007833333482,1675.7007833333482,0.023162512832171914
2024-01-01,SMA,note_100,RM100,100,74512.58595,71374.36296666667,745.1258594999999,713.7436296666667,3138.222983333326,3138.222983333326,0.04211668328675588
2024-02-01,SMA,note_100,RM100,100,75090.48425,72681.95463333333,750.9048425,726.8195463333333,2408.5296166666667,2408.5296166666667,0.03207503108713361
2024-03-01,SMA,note_100,RM100,100,74918.3598,73982.81659999999,749.1835980000001,739.8281659999999,935.5432000000146,935.5432000000146,0.012487502429277883
2024-04-01,SMA,note_100,RM100,100,74451.0135,74840.47666666665,744.510135,748.4047666666665,-389.4631666666537,389.4631666666537,0.005231133175462463
2024-05-01,SMA,note_100,RM100,100,74604.4873,74819.95251666666,746.0448729999999,748.1995251666666,-215.46521666666376,215.46521666666376,0.0028880999583876742
2024-06-01,SMA,note_100,RM100,100,75309.56745,74657.95353333332,753.0956745,746.5795353333332,651.6139166666835,651.6139166666835,0.00865247190669774
2024-07-01,SMA,note_100,RM100,100,75185.92355,74788.35608333333,751.8592355000001,747.8835608333334,397.5674666666746,397.5674666666746,0.005287791223343622
2024-08-01,SMA,note_100,RM100,100,75489.1039,75033.3261,754.891039,750.3332610000001,455.7777999999962,455.7777999999962,0.00603766340376437
2024-09-01,SMA,note_100,RM100,100,75674.5579,75328.1983,756.745579,753.2819830000001,346.35959999999614,346.35959999999614,0.0045769623187979815
2024-10-01,SMA,note_100,RM100,100,76031.7128,75449.86178333334,760.3171279999999,754.4986178333334,581.8510166666529,581.8510166666529,0.0076527411423336095
2024-11-01,SMA,note_100,RM100,100,76447.51985,75731.79153333332,764.4751984999999,757.3179153333332,715.7283166666748,715.7283166666748,0.009362348419818289
2024-12-01,SMA,note_100,RM100,100,78549.52965,76051.26351666666,785.4952965,760.5126351666665,2498.266133333338,2498.266133333338,0.03180497890267556
2025-01-01,SMA,note_100,RM100,100,81008.8851,77009.58743333332,810.088851,770.0958743333332,3999.29766666668,3999.29766666668,0.049368629894484005
2025-02-01,SMA,note_100,RM100,100,79939.96695,78668.64486666665,799.3996695000001,786.6864486666666,1271.322083333347,1271.322083333347,0.01590346020693904
2025-03-01,SMA,note_100,RM100,100,81349.82945,79832.79389999999,813.4982945,798.3279389999999,1517.035550000015,1517.035550000015,0.018648294166768102
2025-04-01,SMA,note_100,RM100,100,80118.70615,80766.22716666666,801.1870615,807.6622716666666,-647.5210166666657,647.5210166666657,0.008082020389275416
2025-05-01,SMA,note_100,RM100,100,80078.54775,80469.50085,800.7854775,804.6950085,-390.9530999999988,390.9530999999988,0.0048821202554837646
2025-06-01,SMA,note_100,RM100,100,80207.7731,80515.69445,802.0777310000001,805.1569445,-307.9213499999896,307.9213499999896,0.0038390462432622953
2025-07-01,SMA,note_100,RM100,100,80727.15225,80135.00899999999,807.2715225,801.3500899999999,592.1432500000083,592.1432500000083,0.007335118773498024
2025-08-01,SMA,note_100,RM100,100,81351.1581,80337.82436666667,813.511581,803.3782436666667,1013.3337333333329,1013.3337333333329,0.012456291428423229
2025-09-01,SMA,note_100,RM100,100,81470.1778,80762.02781666665,814.7017780000001,807.6202781666666,708.149983333351,708.149983333351,0.008692137447788299
2025-10-01,SMA,note_100,RM100,100,82620.54945,81182.82938333333,826.2054945000001,811.8282938333333,1437.7200666666758,1437.7200666666758,0.01740148275746762
2025-11-01,SMA,note_100,RM100,100,82934.2465,81813.96178333333,829.342465,818.1396178333333,1120.2847166666616,1120.2847166666616,0.013508107494129843
2025-12-01,SMA,note_100,RM100,100,84504.34095,82341.65791666666,845.0434094999999,823.4165791666667,2162.6830333333346,2162.6830333333346,0.02559256730506854
2026-01-01,SMA,note_100,RM100,100,86348.4185,83353.04563333333,863.484185,833.5304563333333,2995.372866666672,2995.372866666672,0.03468937727755456
2026-02-01,SMA,note_100,RM100,100,87760.3863,84595.66864999999,877.6038629999999,845.9566864999999,3164.717650000006,3164.717650000006,0.0360608901513006
2021-02-01,ARIMA,note_1,RM1,1,2790.016779,2793.771326805878,2790.016779,2793.771326805878,-3.7545478058777917,3.7545478058777917,0.0013457079663956356
2021-03-01,ARIMA,note_1,RM1,1,2775.8663245,2754.1519626615473,2775.8663245,2754.1519626615473,21.714361838452533,21.714361838452533,0.007822553141986694
2021-04-01,ARIMA,note_1,RM1,1,3001.723709,2731.069980993258,3001.723709,2731.069980993258,270.65372800674186,270.65372800674186,0.09016610262804899
2021-05-01,ARIMA,note_1,RM1,1,3012.6662655,2729.0429015277173,3012.6662655,2729.0429015277173,283.62336397228273,283.62336397228273,0.09414363855042235
2021-06-01,ARIMA,note_1,RM1,1,2983.81815,2734.8822343404454,2983.81815,2734.8822343404454,248.93591565955467,248.93591565955467,0.08342864851182524
2021-07-01,ARIMA,note_1,RM1,1,2958.804983,2739.0940311963386,2958.804983,2739.0940311963386,219.71095180366137,219.71095180366137,0.07425665194766957
2021-08-01,ARIMA,note_1,RM1,1,2942.0285525,2739.8906180156114,2942.0285525,2739.8906180156114,202.13793448438855,202.13793448438855,0.06870699276953689
2021-09-01,ARIMA,note_1,RM1,1,2920.5891615,2739.0874105673724,2920.5891615,2739.0874105673724,181.5017509326276,181.5017509326276,0.06214559491120251
2021-10-01,ARIMA,note_1,RM1,1,2911.937547,2738.349137373814,2911.937547,2738.349137373814,173.58840962618615,173.58840962618615,0.059612682904214134
2021-11-01,ARIMA,note_1,RM1,1,2909.622096,2738.1418652895413,2909.622096,2738.1418652895413,171.48023071045873,171.48023071045873,0.0589355679372249
2021-12-01,ARIMA,note_1,RM1,1,2948.8807235,2738.24107702698,2948.8807235,2738.24107702698,210.6396464730201,210.6396464730201,0.0714303717998515
2022-01-01,ARIMA,note_1,RM1,1,3042.8366285,2738.365690162307,3042.8366285,2738.365690162307,304.47093833769304,304.47093833769304,0.10006154634985623
2022-02-01,ARIMA,note_1,RM1,1,3020.4277965,2738.411837461893,3020.4277965,2738.411837461893,282.0159590381072,282.0159590381072,0.09336954168045354
2022-03-01,ARIMA,note_1,RM1,1,3078.1107755,2738.4019529108273,3078.1107755,2738.4019529108273,339.70882258917254,339.70882258917254,0.11036276708852077
2022-04-01,ARIMA,note_1,RM1,1,3267.546536,2738.381710969142,3267.546536,2738.381710969142,529.1648250308576,529.1648250308576,0.16194561246513725
2022-05-01,ARIMA,note_1,RM1,1,3264.704689,2738.3723020964644,3264.704689,2738.3723020964644,526.3323869035357,526.3323869035357,0.16121898825242742
2022-06-01,ARIMA,note_1,RM1,1,3225.588322,2738.372731900125,3225.588322,2738.372731900125,487.21559009987504,487.21559009987504,0.1510470467594516
2022-07-01,ARIMA,note_1,RM1,1,3184.3508815,2738.375884326391,3184.3508815,2738.375884326391,445.97499717360915,445.97499717360915,0.14005209029085733
2022-08-01,ARIMA,note_1,RM1,1,3124.370902,2738.3776902472955,3124.370902,2738.3776902472955,385.9932117527046,385.9932117527046,0.12354269830948023
2022-09-01,ARIMA,note_1,RM1,1,3079.5521745,2738.377832689089,3079.5521745,2738.377832689089,341.1743418109113,341.1743418109113,0.11078699839411059
2022-10-01,ARIMA,note_1,RM1,1,3053.5370025,2738.377365891827,3053.5370025,2738.377365891827,315.15963660817306,315.15963660817306,0.10321133700038503
2022-11-01,ARIMA,note_1,RM1,1,3033.295173,2738.3770352176384,3033.295173,2738.3770352176384,294.91813778236155,294.91813778236155,0.09722698285596802
2022-12-01,ARIMA,note_1,RM1,1,3111.135887,2738.376975237468,3111.135887,2738.376975237468,372.7589117625321,372.7589117625321,0.1198144103316475
2023-01-01,ARIMA,note_1,RM1,1,3155.381271,2738.377039872727,3155.381271,2738.377039872727,417.0042311272732,417.0042311272732,0.132156527314088
2023-02-01,ARIMA,note_1,RM1,1,3117.67962,2738.377098017216,3117.67962,2738.377098017216,379.3025219827837,379.3025219827837,0.12166180243458874
2023-03-01,ARIMA,note_1,RM1,1,3343.8096755,2738.377113918823,3343.8096755,2738.377113918823,605.4325615811772,605.4325615811772,0.18106071228191145
2023-04-01,ARIMA,note_1,RM1,1,3462.6475035,2738.377105845378,3462.6475035,2738.377105845378,724.2703976546218,724.2703976546218,0.2091666555497025
2023-05-01,ARIMA,note_1,RM1,1,3421.424783,2738.3770960012016,3421.424783,2738.3770960012016,683.0476869987983,683.0476869987983,0.1996383759165628
2023-06-01,ARIMA,note_1,RM1,1,3353.004177,2738.377092428083,3353.004177,2738.377092428083,614.6270845719168,614.6270845719168,0.1833063879812509
2023-07-01,ARIMA,note_1,RM1,1,3267.7879585,2738.3770932534608,3267.7879585,2738.3770932534608,529.4108652465393,529.4108652465393,0.16200894059526208
2023-08-01,ARIMA,note_1,RM1,1,3143.709253,2738.377094857667,3143.709253,2738.377094857667,405.3321581423329,405.3321581423329,0.1289343655923428
2023-09-01,ARIMA,note_1,RM1,1,3068.301169,2738.3770955904392,3068.301169,2738.3770955904392,329.9240734095606,329.9240734095606,0.10752662637647374
2023-10-01,ARIMA,note_1,RM1,1,3029.932712,2738.3770955484492,3029.932712,2738.3770955484492,291.5556164515506,291.5556164515506,0.09622511262274877
2023-11-01,ARIMA,note_1,RM1,1,3006.4198215,2738.3770952976997,3006.4198215,2738.3770952976997,268.0427262023004,268.0427262023004,0.08915678518529897
2023-12-01,ARIMA,note_1,RM1,1,3029.565142,2738.377095156449,3029.565142,2738.377095156449,291.1880468435511,291.1880468435511,0.09611545987465389
2024-01-01,ARIMA,note_1,RM1,1,3127.3013885,2738.3770951465913,3127.3013885,2738.3770951465913,388.92429335340876,388.92429335340876,0.12436418657427675
2024-02-01,ARIMA,note_1,RM1,1,3093.8765985,2738.377095183891,3093.8765985,2738.377095183891,355.499503316109,355.499503316109,0.11490422840021006
2024-03-01,ARIMA,note_1,RM1,1,3448.5535915,2738.3770952098457,3448.5535915,2738.3770952098457,710.1764962901543,710.1764962901543,0.2059345976355416
2024-04-01,ARIMA,note_1,RM1,1,3469.021618,2738.377095214351,3469.021618,2738.377095214351,730.6445227856493,730.6445227856493,0.21061976639018146
2024-05-01,ARIMA,note_1,RM1,1,3375.5473775,2738.377095209153,3375.5473775,2738.377095209153,637.1702822908469,637.1702822908469,0.188760580443326
2024-06-01,ARIMA,note_1,RM1,1,3313.687856,2738.3770952045747,3313.687856,2738.3770952045747,575.3107607954253,575.3107607954253,0.17361646171763778
2024-07-01,ARIMA,note_1,RM1,1,3232.286078,2738.377095203356,3232.286078,2738.377095203356,493.90898279664407,493.90898279664407,0.15280484798618252
2024-08-01,ARIMA,note_1,RM1,1,3183.07128,2738.377095204012,3183.07128,2738.377095204012,444.6941847959879,444.6941847959879,0.13970600897004978
2024-09-01,ARIMA,note_1,RM1,1,3158.28922,2738.37709520479,3158.28922,2738.37709520479,419.9121247952103,419.9121247952103,0.13295556408706935
2024-10-01,ARIMA,note_1,RM1,1,3127.9969355,2738.3770952050663,3127.9969355,2738.3770952050663,389.6198402949335,389.6198402949335,0.12455889450309007
2024-11-01,ARIMA,note_1,RM1,1,3109.9682245,2738.3770952049977,3109.9682245,2738.3770952049977,371.59112929500225,371.59112929500225,0.11948389902110469
2024-12-01,ARIMA,note_1,RM1,1,3155.541517,2738.377095204871,3155.541517,2738.377095204871,417.16442179512933,417.16442179512933,0.13220058096137205
2025-01-01,ARIMA,note_1,RM1,1,3211.267151,2738.377095204814,3211.267151,2738.377095204814,472.8900557951861,472.8900557951861,0.14725964348619405
2025-02-01,ARIMA,note_1,RM1,1,3330.2800305,2738.377095204818,3330.2800305,2738.377095204818,591.902935295182,591.902935295182,0.177733683015934
2025-03-01,ARIMA,note_1,RM1,1,3523.4432705,2738.377095204838,3523.4432705,2738.377095204838,785.0661752951619,785.0661752951619,0.22281220812269692
2025-04-01,ARIMA,note_1,RM1,1,3509.8866375,2738.377095204849,3509.8866375,2738.377095204849,771.5095422951508,771.5095422951508,0.2198103876211446
2025-05-01,ARIMA,note_1,RM1,1,3438.3736465,2738.3770952048494,3438.3736465,2738.3770952048494,699.9965512951508,699.9965512951508,0.2035836192519953
2025-06-01,ARIMA,note_1,RM1,1,3383.6197155,2738.3770952048462,3383.6197155,2738.3770952048462,645.2426202951538,645.2426202951538,0.19069596306563835
2025-07-01,ARIMA,note_1,RM1,1,3318.2309045,2738.3770952048444,3318.2309045,2738.3770952048444,579.8538092951558,579.8538092951558,0.174747878005955
2025-08-01,ARIMA,note_1,RM1,1,3261.222365,2738.377095204844,3261.222365,2738.377095204844,522.8452697951561,522.8452697951561,0.16032187053738547
2025-09-01,ARIMA,note_1,RM1,1,3233.2349375,2738.3770952048444,3233.2349375,2738.3770952048444,494.8578422951555,494.8578422951555,0.15305347488227664
2025-10-01,ARIMA,note_1,RM1,1,3217.2711135,2738.377095204845,3217.2711135,2738.377095204845,478.8940182951551,478.8940182951551,0.14885099868819468
2025-11-01,ARIMA,note_1,RM1,1,3201.43262,2738.377095204845,3201.43262,2738.377095204845,463.0555247951552,463.0555247951552,0.1446400970310458
2025-12-01,ARIMA,note_1,RM1,1,3245.5476715,2738.377095204845,3245.5476715,2738.377095204845,507.1705762951551,507.1705762951551,0.1562665619577097
2026-01-01,ARIMA,note_1,RM1,1,3423.6235415,2738.377095204845,3423.6235415,2738.377095204845,685.2464462951552,685.2464462951552,0.20015239350612907
2026-02-01,ARIMA,note_1,RM1,1,3564.366069,2738.377095204845,3564.366069,2738.377095204845,825.9889737951553,825.9889737951553,0.23173516911715256
2021-02-01,ARIMA,note_5,RM5,5,2732.4145775,2735.8511376675096,546.4829155,547.1702275335019,-3.4365601675094695,3.4365601675094695,0.001257700861285011
2021-03-01,ARIMA,note_5,RM5,5,2691.967875,2651.4080946192084,538.3935749999999,530.2816189238417,40.55978038079138,40.55978038079138,0.015066963004077968
2021-04-01,ARIMA,note_5,RM5,5,2898.37506,2609.9000812448317,579.6750119999999,521.9800162489663,288.4749787551682,288.4749787551682,0.09952989961042799
2021-05-01,ARIMA,note_5,RM5,5,2894.997075,2613.281827970256,578.999415,522.6563655940512,281.7152470297442,281.7152470297442,0.09731106447827557
2021-06-01,ARIMA,note_5,RM5,5,2848.26866,2628.2334019736763,569.653732,525.6466803947353,220.03525802632385,220.03525802632385,0.07725228350696518
2021-07-01,ARIMA,note_5,RM5,5,2808.536295,2635.52301275204,561.707259,527.104602550408,173.01328224795998,173.01328224795998,0.06160265137252214
2021-08-01,ARIMA,note_5,RM5,5,2776.11333,2634.89080209301,555.222666,526.978160418602,141.2225279069903,141.2225279069903,0.05087059176614749
2021-09-01,ARIMA,note_5,RM5,5,2748.2739975,2632.243611234933,549.6547995,526.4487222469866,116.03038626506714,116.03038626506714,0.04221936618059755
2021-10-01,ARIMA,note_5,RM5,5,2734.5997,2630.9635108361426,546.91994,526.1927021672285,103.63618916385758,103.63618916385758,0.03789812057825413
2021-11-01,ARIMA,note_5,RM5,5,2727.0057325,2631.0813290331225,545.4011465,526.2162658066245,95.92440346687727,95.92440346687727,0.03517572490723661
2021-12-01,ARIMA,note_5,RM5,5,2821.61233,2631.54999027503,564.322466,526.309998055006,190.06233972497012,190.06233972497012,0.06735948014693079
2022-01-01,ARIMA,note_5,RM5,5,2997.88893,2631.774766659071,599.5777860000001,526.3549533318142,366.1141633409293,366.1141633409293,0.12212399187882163
2022-02-01,ARIMA,note_5,RM5,5,2967.83837,2631.752872228473,593.567674,526.3505744456945,336.0854977715271,336.0854977715271,0.11324252060651373
2022-03-01,ARIMA,note_5,RM5,5,3003.223285,2631.6699046509243,600.644657,526.3339809301849,371.5533803490757,371.5533803490757,0.12371820044312014
2022-04-01,ARIMA,note_5,RM5,5,3184.461155,2631.6304385766616,636.892231,526.3260877153323,552.8307164233383,552.8307164233383,0.17360259381883977
2022-05-01,ARIMA,note_5,RM5,5,3179.3609325,2631.634496891973,635.8721865,526.3268993783946,547.7264356080273,547.7264356080273,0.1722756387955419
2022-06-01,ARIMA,note_5,RM5,5,3123.77415,2631.6491839058313,624.7548300000001,526.3298367811663,492.12496609416894,492.12496609416894,0.15754178838254645
2022-07-01,ARIMA,note_5,RM5,5,3058.8396225,2631.6561127918067,611.7679245,526.3312225583613,427.18350970819347,427.18350970819347,0.1396554126492761
2022-08-01,ARIMA,note_5,RM5,5,2991.1551975,2631.6553622895403,598.2310395000001,526.331072457908,359.4998352104599,359.4998352104599,0.12018762366824995
2022-09-01,ARIMA,note_5,RM5,5,2944.0221075,2631.6527625223575,588.8044215,526.3305525044715,312.3693449776424,312.3693449776424,0.10610292096036593
2022-10-01,ARIMA,note_5,RM5,5,2915.8404125,2631.651546143774,583.1680825000001,526.3303092287548,284.1888663562263,284.1888663562263,0.09746379299015435
2022-11-01,ARIMA,note_5,RM5,5,2881.195025,2631.6516846411996,576.239005,526.33033692824,249.54334035880038,249.54334035880038,0.08661105485519863
2022-12-01,ARIMA,note_5,RM5,5,3049.7045,2631.6521448038848,609.9408999999999,526.330428960777,418.05235519611506,418.05235519611506,0.13707962695930542
2023-01-01,ARIMA,note_5,RM5,5,3162.0804175,2631.652358324395,632.4160835,526.330471664879,530.4280591756046,530.4280591756046,0.16774654314293846
2023-02-01,ARIMA,note_5,RM5,5,3095.407685,2631.652332815435,619.081537,526.3304665630869,463.75535218456525,463.75535218456525,0.14982044350147217
2023-03-01,ARIMA,note_5,RM5,5,3327.856805,2631.6522513704294,665.571361,526.3304502740859,696.2045536295705,696.2045536295705,0.2092050813555274
2023-04-01,ARIMA,note_5,RM5,5,3437.0215875,2631.6522138925056,687.4043174999999,526.3304427785012,805.3693736074943,805.3693736074943,0.23432188396387088
2023-05-01,ARIMA,note_5,RM5,5,3357.11783,2631.6522185825124,671.423566,526.3304437165025,725.4656114174877,725.4656114174877,0.21609775055690783
2023-06-01,ARIMA,note_5,RM5,5,3249.0655975,2631.652232996819,649.8131195,526.3304465993638,617.4133645031811,617.4133645031811,0.19002797757553774
2023-07-01,ARIMA,note_5,RM5,5,3128.4024525,2631.65223957455,625.6804905,526.33044791491,496.7502129254499,496.7502129254499,0.1587871830647882
2023-08-01,ARIMA,note_5,RM5,5,3004.6177125,2631.652238713667,600.9235424999999,526.3304477427334,372.96547378633295,372.96547378633295,0.12413075787801506
2023-09-01,ARIMA,note_5,RM5,5,2952.8209825,2631.6522361627317,590.5641965,526.3304472325464,321.1687463372682,321.1687463372682,0.1087667516048844
2023-10-01,ARIMA,note_5,RM5,5,2918.20541,2631.6522350083724,583.641082,526.3304470016744,286.55317499162766,286.55317499162766,0.0981949982032374
2023-11-01,ARIMA,note_5,RM5,5,2889.9601575,2631.6522351661547,577.9920315,526.3304470332309,258.30792233384545,258.30792233384545,0.08938113615977955
2023-12-01,ARIMA,note_5,RM5,5,2966.715245,2631.6522356175756,593.343049,526.3304471235151,335.0630093824243,335.0630093824243,0.11294073805941707
2024-01-01,ARIMA,note_5,RM5,5,3196.58787,2631.6522358201432,639.3175739999999,526.3304471640287,564.9356341798566,564.9356341798566,0.17673083211063323
2024-02-01,ARIMA,note_5,RM5,5,3136.1369075,2631.6522357912654,627.2273815,526.330447158253,504.48467170873437,504.48467170873437,0.1608618139413081
2024-03-01,ARIMA,note_5,RM5,5,3486.03338,2631.652235711385,697.206676,526.330447142277,854.3811442886149,854.3811442886149,0.24508690857361065
2024-04-01,ARIMA,note_5,RM5,5,3484.1405425,2631.6522356758414,696.8281085,526.3304471351682,852.4883068241584,852.4883068241584,0.2446767851139743
2024-05-01,ARIMA,note_5,RM5,5,3366.87739,2631.6522356811197,673.375478,526.3304471362239,735.2251543188804,735.2251543188804,0.21837004118492132
2024-06-01,ARIMA,note_5,RM5,5,3279.02083,2631.652235695254,655.804166,526.3304471390509,647.3685943047458,647.3685943047458,0.19742741137290848
2024-07-01,ARIMA,note_5,RM5,5,3195.443485,2631.65223570149,639.0886969999999,526.330447140298,563.7912492985097,563.7912492985097,0.17643599454819014
2024-08-01,ARIMA,note_5,RM5,5,3143.1840475,2631.6522357005265,628.6368095,526.3304471401053,511.5318117994734,511.5318117994734,0.16274319418435945
2024-09-01,ARIMA,note_5,RM5,5,3114.3893225,2631.652235698026,622.8778645,526.3304471396052,482.7370868019743,482.7370868019743,0.1550021647307951
2024-10-01,ARIMA,note_5,RM5,5,3075.1845425,2631.6522356969317,615.0369085,526.3304471393864,443.5323068030684,443.5323068030684,0.14422949279086017
2024-11-01,ARIMA,note_5,RM5,5,3052.44869,2631.6522356971072,610.489738,526.3304471394215,420.7964543028929,420.7964543028929,0.13785537351748012
2024-12-01,ARIMA,note_5,RM5,5,3168.7206475,2631.6522356975497,633.7441295,526.3304471395099,537.0684118024501,537.0684118024501,0.16949061515604938
2025-01-01,ARIMA,note_5,RM5,5,3302.1838175,2631.6522356977416,660.4367635,526.3304471395484,670.5315818022582,670.5315818022582,0.20305701283155725
2025-02-01,ARIMA,note_5,RM5,5,3430.1300225,2631.65223569771,686.0260045,526.330447139542,798.4777868022902,798.4777868022902,0.2327835334417823
2025-03-01,ARIMA,note_5,RM5,5,3698.3032225,2631.6522356976316,739.6606445,526.3304471395263,1066.6509868023686,1066.6509868023686,0.28841631489624797
2025-04-01,ARIMA,note_5,RM5,5,3643.0504375,2631.652235697598,728.6100875,526.3304471395196,1011.3982018024021,1011.3982018024021,0.2776239909806086
2025-05-01,ARIMA,note_5,RM5,5,3541.911095,2631.652235697604,708.382219,526.3304471395207,910.2588593023961,910.2588593023961,0.25699652952536806
2025-06-01,ARIMA,note_5,RM5,5,3446.206735,2631.6522356976175,689.241347,526.3304471395235,814.5544993023827,814.5544993023827,0.23636263345135117
2025-07-01,ARIMA,note_5,RM5,5,3360.5612025,2631.6522356976234,672.1122405,526.3304471395247,728.9089668023767,728.9089668023767,0.2169009647139068
2025-08-01,ARIMA,note_5,RM5,5,3305.26214,2631.6522356976225,661.052428,526.3304471395245,673.6099043023773,673.6099043023773,0.20379923763093036
2025-09-01,ARIMA,note_5,RM5,5,3265.2048775,2631.65223569762,653.0409755,526.330447139524,633.5526418023796,633.5526418023796,0.19403151274460256
2025-10-01,ARIMA,note_5,RM5,5,3233.2160575,2631.6522356976193,646.6432115,526.3304471395238,601.5638218023805,601.5638218023805,0.18605741500230086
2025-11-01,ARIMA,note_5,RM5,5,3206.8986925,2631.6522356976193,641.3797385,526.3304471395238,575.2464568023806,575.2464568023806,0.17937780764565908
2025-12-01,ARIMA,note_5,RM5,5,3338.4901725,2631.6522356976197,667.6980345,526.3304471395239,706.8379368023802,706.8379368023802,0.21172383331386915
2026-01-01,ARIMA,note_5,RM5,5,3601.3204125,2631.6522356976197,720.2640825000001,526.3304471395239,969.6681768023805,969.6681768023805,0.26925351419349175
2026-02-01,ARIMA,note_5,RM5,5,3765.0659175,2631.6522356976197,753.0131835,526.3304471395239,1133.4136818023803,1133.4136818023803,0.3010342200210311
2021-02-01,ARIMA,note_10,RM10,10,7123.35543,7050.441589524262,712.3355429999999,705.0441589524262,72.91384047573774,72.91384047573774,0.010235884084719572
2021-03-01,ARIMA,note_10,RM10,10,6893.192205,6722.307848100163,689.3192205,672.2307848100163,170.88435689983726,170.88435689983726,0.024790307859961558
2021-04-01,ARIMA,note_10,RM10,10,7248.58671,6605.715447328395,724.858671,660.5715447328396,642.8712626716042,642.8712626716042,0.08868918706383305
2021-05-01,ARIMA,note_10,RM10,10,7099.50651,6617.196087949583,709.950651,661.7196087949583,482.3104220504174,482.3104220504174,0.06793576727777624
2021-06-01,ARIMA,note_10,RM10,10,6846.29798,6648.326333344509,684.629798,664.832633334451,197.97164665549099,197.97164665549099,0.02891659802623592
2021-07-01,ARIMA,note_10,RM10,10,6776.52114,6661.755275911915,677.652114,666.1755275911916,114.76586408808453,114.76586408808453,0.016935808465298248
2021-08-01,ARIMA,note_10,RM10,10,6723.578235,6661.8766859127145,672.3578235,666.1876685912714,61.70154908728546,61.70154908728546,0.009176891668500897
2021-09-01,ARIMA,note_10,RM10,10,6697.01523,6659.029302533729,669.701523,665.9029302533729,37.98592746627128,37.98592746627128,0.0056720682515561905
2021-10-01,ARIMA,note_10,RM10,10,6708.285375,6657.547186554927,670.8285375,665.7547186554928,50.73818844507332,50.73818844507332,0.007563510734674628
2021-11-01,ARIMA,note_10,RM10,10,6691.83206,6657.406311501852,669.1832059999999,665.7406311501852,34.425748498148096,34.425748498148096,0.00514444298504229
2021-12-01,ARIMA,note_10,RM10,10,6997.022465,6657.655393809605,699.7022465,665.7655393809605,339.3670711903951,339.3670711903951,0.04850164093197536
2022-01-01,ARIMA,note_10,RM10,10,7667.44901,6657.813266147983,766.744901,665.7813266147983,1009.6357438520172,1009.6357438520172,0.13167818169188153
2022-02-01,ARIMA,note_10,RM10,10,7404.96555,6657.840018087042,740.496555,665.7840018087043,747.1255319129577,747.1255319129577,0.1008952069889046
2022-03-01,ARIMA,note_10,RM10,10,7377.25925,6657.819491879976,737.725925,665.7819491879976,719.4397581200237,719.4397581200237,0.09752127907393572
2022-04-01,ARIMA,note_10,RM10,10,7810.064915,6657.803201267021,781.0064915,665.7803201267021,1152.261713732979,1152.261713732979,0.14753548482291698
2022-05-01,ARIMA,note_10,RM10,10,7640.560155,6657.799319314411,764.0560155000001,665.7799319314411,982.760835685589,982.760835685589,0.12862418667595568
2022-06-01,ARIMA,note_10,RM10,10,7341.388415,6657.800864002831,734.1388415,665.7800864002832,683.5875509971693,683.5875509971693,0.0931142056998995
2022-07-01,ARIMA,note_10,RM10,10,7200.5891,6657.802494819458,720.05891,665.7802494819458,542.7866051805422,542.7866051805422,0.07538086087713881
2022-08-01,ARIMA,note_10,RM10,10,7095.97118,6657.802993958649,709.5971179999999,665.7802993958649,438.16818604135096,438.16818604135096,0.06174886776264373
2022-09-01,ARIMA,note_10,RM10,10,7035.35796,6657.80289583298,703.535796,665.780289583298,377.55506416702065,377.55506416702065,0.053665366611569065
2022-10-01,ARIMA,note_10,RM10,10,7023.750095,6657.8027375218435,702.3750095,665.7802737521844,365.94735747815685,365.94735747815685,0.05210142054152296
2022-11-01,ARIMA,note_10,RM10,10,7006.460815,6657.802677839928,700.6460815,665.7802677839928,348.65813716007233,348.65813716007233,0.049762375950727744
2022-12-01,ARIMA,note_10,RM10,10,7770.010525,6657.802681624746,777.0010525,665.7802681624746,1112.207843375254,1112.207843375254,0.14314109868921368
2023-01-01,ARIMA,note_10,RM10,10,8115.95881,6657.802696490281,811.595881,665.7802696490281,1458.156113509719,1458.156113509719,0.17966529249915192
2023-02-01,ARIMA,note_10,RM10,10,7753.820635,6657.802703270738,775.3820635,665.7802703270738,1096.0179317292623,1096.0179317292623,0.14135198417950795
2023-03-01,ARIMA,note_10,RM10,10,8131.75874,6657.80270351675,813.175874,665.780270351675,1473.9560364832505,1473.9560364832505,0.18125919418057532
2023-04-01,ARIMA,note_10,RM10,10,8289.401635,6657.802702173505,828.9401635,665.7802702173506,1631.598932826495,1631.598932826495,0.19682951854298647
2023-05-01,ARIMA,note_10,RM10,10,7748.897005,6657.802701433431,774.8897005,665.7802701433432,1091.0943035665687,1091.0943035665687,0.1408064015901278
2023-06-01,ARIMA,note_10,RM10,10,7529.41836,6657.802701346067,752.941836,665.7802701346067,871.6156586539328,871.6156586539328,0.11576135326526507
2023-07-01,ARIMA,note_10,RM10,10,7333.54532,6657.802701461741,733.3545320000001,665.7802701461741,675.7426185382592,675.7426185382592,0.0921440570763745
2023-08-01,ARIMA,note_10,RM10,10,7210.06102,6657.802701539811,721.006102,665.7802701539811,552.258318460189,552.258318460189,0.07659551242746472
2023-09-01,ARIMA,note_10,RM10,10,7174.920425,6657.802701554665,717.4920425,665.7802701554665,517.1177234453353,517.1177234453353,0.07207295590951941
2023-10-01,ARIMA,note_10,RM10,10,7136.48343,6657.802701545345,713.6483430000001,665.7802701545345,478.68072845465485,478.68072845465485,0.06707515447207517
2023-11-01,ARIMA,note_10,RM10,10,7106.64855,6657.802701537362,710.664855,665.7802701537362,448.84584846263806,448.84584846263806,0.06315858246045361
2023-12-01,ARIMA,note_10,RM10,10,7449.423375,6657.802701535299,744.9423375,665.78027015353,791.6206734647012,791.6206734647012,0.10626603343842049
2024-01-01,ARIMA,note_10,RM10,10,8302.65177,6657.802701535974,830.265177,665.7802701535974,1644.8490684640265,1644.8490684640265,0.1981112919136709
2024-02-01,ARIMA,note_10,RM10,10,8109.682735,6657.802701536766,810.9682735,665.7802701536766,1451.8800334632342,1451.8800334632342,0.1790304357033807
2024-03-01,ARIMA,note_10,RM10,10,8491.70266,6657.802701537024,849.1702660000001,665.7802701537024,1833.8999584629764,1833.8999584629764,0.21596375095674586
2024-04-01,ARIMA,note_10,RM10,10,8187.651815,6657.802701536985,818.7651815,665.7802701536986,1529.8491134630149,1529.8491134630149,0.18684833552158261
2024-05-01,ARIMA,note_10,RM10,10,7830.93608,6657.802701536909,783.093608,665.7802701536909,1173.1333784630915,1173.1333784630915,0.14980755384522196
2024-06-01,ARIMA,note_10,RM10,10,7706.788315,6657.802701536879,770.6788315,665.7802701536879,1048.985613463121,1048.985613463121,0.13611190168820939
2024-07-01,ARIMA,note_10,RM10,10,7548.51475,6657.80270153688,754.851475,665.780270153688,890.7120484631205,890.7120484631205,0.11799831860474545
2024-08-01,ARIMA,note_10,RM10,10,7487.16185,6657.802701536887,748.716185,665.7802701536887,829.3591484631133,829.3591484631133,0.11077083213622707
2024-09-01,ARIMA,note_10,RM10,10,7442.69883,6657.802701536891,744.269883,665.7802701536891,784.8961284631096,784.8961284631096,0.1054585368011068
2024-10-01,ARIMA,note_10,RM10,10,7402.066905,6657.802701536891,740.2066904999999,665.7802701536891,744.264203463109,744.264203463109,0.10054815945534999
2024-11-01,ARIMA,note_10,RM10,10,7451.65808,6657.80270153689,745.165808,665.780270153689,793.8553784631104,793.8553784631104,0.1065340585867448
2024-12-01,ARIMA,note_10,RM10,10,7774.32942,6657.80270153689,777.432942,665.780270153689,1116.5267184631102,1116.5267184631102,0.1436171093536078
2025-01-01,ARIMA,note_10,RM10,10,8671.533525,6657.80270153689,867.1533525000001,665.780270153689,2013.730823463111,2013.730823463111,0.23222314918780307
2025-02-01,ARIMA,note_10,RM10,10,8538.190705,6657.80270153689,853.8190705000001,665.780270153689,1880.388003463111,1880.388003463111,0.22023260763687882
2025-03-01,ARIMA,note_10,RM10,10,8906.89582,6657.80270153689,890.689582,665.780270153689,2249.09311846311,2249.09311846311,0.2525114432587031
2025-04-01,ARIMA,note_10,RM10,10,8743.021025,6657.80270153689,874.3021025,665.780270153689,2085.21832346311,2085.21832346311,0.23850089316960213
2025-05-01,ARIMA,note_10,RM10,10,8563.33757,6657.80270153689,856.333757,665.780270153689,1905.53486846311,1905.53486846311,0.22252245142580662
2025-06-01,ARIMA,note_10,RM10,10,8464.03205,6657.80270153689,846.403205,665.780270153689,1806.22934846311,1806.22934846311,0.2134005799828121
2025-07-01,ARIMA,note_10,RM10,10,8149.19954,6657.80270153689,814.919954,665.780270153689,1491.3968384631098,1491.3968384631098,0.18301145175580152
2025-08-01,ARIMA,note_10,RM10,10,8076.924305,6657.80270153689,807.6924305,665.780270153689,1419.1216034631098,1419.1216034631098,0.17570074323769583
2025-09-01,ARIMA,note_10,RM10,10,8015.28062,6657.80270153689,801.5280620000001,665.780270153689,1357.4779184631107,1357.4779184631107,0.16936124670119293
2025-10-01,ARIMA,note_10,RM10,10,8021.430935,6657.80270153689,802.1430935000001,665.780270153689,1363.6282334631105,1363.6282334631105,0.16999812683210622
2025-11-01,ARIMA,note_10,RM10,10,8011.4198,6657.80270153689,801.14198,665.780270153689,1353.6170984631099,1353.6170984631099,0.1689609497761071
2025-12-01,ARIMA,note_10,RM10,10,8357.020215,6657.80270153689,835.7020215,665.780270153689,1699.2175134631107,1699.2175134631107,0.20332815641790458
2026-01-01,ARIMA,note_10,RM10,10,9187.221095,6657.80270153689,918.7221095000001,665.780270153689,2529.418393463111,2529.418393463111,0.27531920341393623
2026-02-01,ARIMA,note_10,RM10,10,9630.124815,6657.80270153689,963.0124814999999,665.780270153689,2972.3221134631094,2972.3221134631094,0.3086483478213475
2021-02-01,ARIMA,note_20,RM20,20,3795.36636,3770.956580972296,189.768318,188.5478290486148,24.40977902770419,24.40977902770419,0.00643146845715948
2021-03-01,ARIMA,note_20,RM20,20,3764.46093,3743.894614463661,188.2230465,187.19473072318306,20.56631553633906,20.56631553633906,0.0054632830354116755
2021-04-01,ARIMA,note_20,RM20,20,3928.7007,3738.936436830105,196.435035,186.94682184150525,189.764263169895,189.764263169895,0.04830204122444222
2021-05-01,ARIMA,note_20,RM20,20,3909.10911,3741.064561923401,195.4554555,187.05322809617005,168.04454807659886,168.04454807659886,0.04298794005179325
2021-06-01,ARIMA,note_20,RM20,20,3739.73201,3741.9412166653187,186.9866005,187.09706083326594,-2.209206665318561,2.209206665318561,0.0005907392988083553
2021-07-01,ARIMA,note_20,RM20,20,3756.17817,3741.851887528022,187.8089085,187.0925943764011,14.326282471978175,14.326282471978175,0.0038140582857330687
2021-08-01,ARIMA,note_20,RM20,20,3761.69222,3741.742882672645,188.084611,187.08714413363225,19.949337327354897,19.949337327354897,0.005303288031192221
2021-09-01,ARIMA,note_20,RM20,20,3777.97089,3741.7350577634115,188.8985445,187.08675288817057,36.23583223658852,36.23583223658852,0.00959134765503408
2021-10-01,ARIMA,note_20,RM20,20,3842.17164,3741.745576840474,192.108582,187.0872788420237,100.42606315952617,100.42606315952617,0.02613783884978292
2021-11-01,ARIMA,note_20,RM20,20,3854.75403,3741.7481081702767,192.73770150000001,187.08740540851383,113.00592182972332,113.00592182972332,0.029315987725868808
2021-12-01,ARIMA,note_20,RM20,20,3948.75171,3741.747377791524,197.4375855,187.0873688895762,207.00433220847617,207.00433220847617,0.052422726828898585
2022-01-01,ARIMA,note_20,RM20,20,4161.67144,3741.7469873102605,208.083572,187.08734936551303,419.9244526897396,419.9244526897396,0.10090283645499405
2022-02-01,ARIMA,note_20,RM20,20,3979.95635,3741.7470036039304,198.9978175,187.08735018019652,238.20934639606958,238.20934639606958,0.05985225099166466
2022-03-01,ARIMA,note_20,RM20,20,3955.56584,3741.7470483908264,197.77829200000002,187.08735241954133,213.8187916091738,213.8187916091738,0.05405517194201823
2022-04-01,ARIMA,note_20,RM20,20,4346.10289,3741.747053810191,217.3051445,187.08735269050956,604.355836189809,604.355836189809,0.13905695550383276
2022-05-01,ARIMA,note_20,RM20,20,4212.00448,3741.74704984156,210.60022399999997,187.087352492078,470.25743015843955,470.25743015843955,0.11164694443972661
2022-06-01,ARIMA,note_20,RM20,20,4064.03972,3741.747048620066,203.201986,187.0873524310033,322.2926713799343,322.2926713799343,0.07930352397735282
2022-07-01,ARIMA,note_20,RM20,20,3992.5679,3741.7470488529075,199.628395,187.08735244264537,250.82085114709253,250.82085114709253,0.06282193751722857
2022-08-01,ARIMA,note_20,RM20,20,3937.19959,3741.747049022162,196.8599795,187.0873524511081,195.452540977838,195.452540977838,0.0496425280227762
2022-09-01,ARIMA,note_20,RM20,20,3872.64855,3741.7470490241444,193.6324275,187.0873524512072,130.90150097585547,130.90150097585547,0.0338015441591919
2022-10-01,ARIMA,note_20,RM20,20,3853.13291,3741.7470490061814,192.6566455,187.08735245030908,111.38586099381837,111.38586099381837,0.028907868894099055
2022-11-01,ARIMA,note_20,RM20,20,3801.69097,3741.747049003088,190.0845485,187.08735245015438,59.94392099691231,59.94392099691231,0.015767699550001117
2022-12-01,ARIMA,note_20,RM20,20,3938.52526,3741.747049004532,196.926263,187.0873524502266,196.77821099546782,196.77821099546782,0.04996240927891569
2023-01-01,ARIMA,note_20,RM20,20,4108.11204,3741.747049005098,205.405602,187.08735245025488,366.3649909949022,366.3649909949022,0.08918086639986143
2023-02-01,ARIMA,note_20,RM20,20,3883.90496,3741.7470490050323,194.195248,187.08735245025161,142.15791099496755,142.15791099496755,0.03660179959577784
2023-03-01,ARIMA,note_20,RM20,20,3952.74668,3741.747049004961,197.637334,187.08735245024803,210.9996309950393,210.9996309950393,0.05338050932093612
2023-04-01,ARIMA,note_20,RM20,20,4151.24711,3741.7470490049564,207.56235550000002,187.0873524502478,409.5000609950439,409.5000609950439,0.09864506981735517
2023-05-01,ARIMA,note_20,RM20,20,3901.84747,3741.747049004963,195.0923735,187.08735245024815,160.10042099503698,160.10042099503698,0.041031952741873066
2023-06-01,ARIMA,note_20,RM20,20,3863.2806,3741.747049004965,193.16403,187.08735245024826,121.53355099503506,121.53355099503506,0.03145863932198843
2023-07-01,ARIMA,note_20,RM20,20,3800.28187,3741.7470490049645,190.0140935,187.08735245024823,58.53482099503526,58.53482099503526,0.015402757742029084
2023-08-01,ARIMA,note_20,RM20,20,3768.30614,3741.747049004964,188.415307,187.0873524502482,26.55909099503606,26.55909099503606,0.007048018395616885
2023-09-01,ARIMA,note_20,RM20,20,3802.20631,3741.747049004964,190.1103155,187.0873524502482,60.45926099503595,60.45926099503595,0.01590109953687283
2023-10-01,ARIMA,note_20,RM20,20,3807.21869,3741.747049004964,190.3609345,187.0873524502482,65.47164099503607,65.47164099503607,0.017196711385926735
2023-11-01,ARIMA,note_20,RM20,20,3812.03863,3741.747049004964,190.6019315,187.0873524502482,70.29158099503593,70.29158099503593,0.018439367440260156
2023-12-01,ARIMA,note_20,RM20,20,3960.22291,3741.747049004964,198.0111455,187.0873524502482,218.47586099503587,218.47586099503587,0.0551675665638316
2024-01-01,ARIMA,note_20,RM20,20,4126.80526,3741.747049004964,206.340263,187.0873524502482,385.058210995036,385.058210995036,0.09330661049778637
2024-02-01,ARIMA,note_20,RM20,20,4076.71577,3741.747049004964,203.83578849999998,187.0873524502482,334.9687209950357,334.9687209950357,0.08216631717619984
2024-03-01,ARIMA,note_20,RM20,20,4280.04983,3741.747049004964,214.0024915,187.0873524502482,538.3027809950358,538.3027809950358,0.125770213519929
2024-04-01,ARIMA,note_20,RM20,20,4271.6776,3741.747049004964,213.58388,187.0873524502482,529.9305509950359,529.9305509950359,0.12405677595964544
2024-05-01,ARIMA,note_20,RM20,20,4149.07097,3741.747049004964,207.45354849999998,187.0873524502482,407.3239209950357,407.3239209950357,0.0981723195241068
2024-06-01,ARIMA,note_20,RM20,20,4166.23755,3741.747049004964,208.31187749999998,187.0873524502482,424.49050099503575,424.49050099503575,0.10188821350214074
2024-07-01,ARIMA,note_20,RM20,20,4126.42479,3741.747049004964,206.3212395,187.0873524502482,384.67774099503595,384.67774099503595,0.09322301037141548
2024-08-01,ARIMA,note_20,RM20,20,4125.40543,3741.747049004964,206.27027149999998,187.0873524502482,383.6583809950357,383.6583809950357,0.09299895186181391
2024-09-01,ARIMA,note_20,RM20,20,4156.90125,3741.747049004964,207.84506249999998,187.0873524502482,415.1542009950358,415.1542009950358,0.09987107607981686
2024-10-01,ARIMA,note_20,RM20,20,4127.3909,3741.747049004964,206.36954500000002,187.0873524502482,385.64385099503625,385.64385099503625,0.09343526221251208
2024-11-01,ARIMA,note_20,RM20,20,4149.79859,3741.747049004964,207.48992950000002,187.0873524502482,408.05154099503625,408.05154099503625,0.09833044475419618
2024-12-01,ARIMA,note_20,RM20,20,4363.73578,3741.747049004964,218.186789,187.0873524502482,621.9887309950359,621.9887309950359,0.14253583680427045
2025-01-01,ARIMA,note_20,RM20,20,4704.26146,3741.747049004964,235.21307299999998,187.0873524502482,962.5144109950356,962.5144109950356,0.204604786357907
2025-02-01,ARIMA,note_20,RM20,20,4641.06973,3741.747049004964,232.05348650000002,187.0873524502482,899.3226809950361,899.3226809950361,0.19377486944050634
2025-03-01,ARIMA,note_20,RM20,20,4889.31201,3741.747049004964,244.4656005,187.0873524502482,1147.5649609950356,1147.5649609950356,0.23470888310010626
2025-04-01,ARIMA,note_20,RM20,20,4680.79038,3741.747049004964,234.039519,187.0873524502482,939.0433309950363,939.0433309950363,0.20061640337652467
2025-05-01,ARIMA,note_20,RM20,20,4540.1281,3741.747049004964,227.006405,187.0873524502482,798.3810509950358,798.3810509950358,0.1758498952915086
2025-06-01,ARIMA,note_20,RM20,20,4458.61571,3741.747049004964,222.9307855,187.0873524502482,716.868660995036,716.868660995036,0.16078278721963143
2025-07-01,ARIMA,note_20,RM20,20,4411.28766,3741.747049004964,220.564383,187.0873524502482,669.5406109950359,669.5406109950359,0.15177895041082765
2025-08-01,ARIMA,note_20,RM20,20,4405.73977,3741.747049004964,220.2869885,187.0873524502482,663.992720995036,663.992720995036,0.15071083533266333
2025-09-01,ARIMA,note_20,RM20,20,4386.14733,3741.747049004964,219.3073665,187.0873524502482,644.4002809950357,644.4002809950357,0.14691715360027263
2025-10-01,ARIMA,note_20,RM20,20,4440.66839,3741.747049004964,222.03341949999998,187.0873524502482,698.9213409950357,698.9213409950357,0.1573910230651192
2025-11-01,ARIMA,note_20,RM20,20,4444.81738,3741.747049004964,222.24086900000003,187.0873524502482,703.0703309950363,703.0703309950363,0.15817755171642986
2025-12-01,ARIMA,note_20,RM20,20,4633.77883,3741.747049004964,231.6889415,187.0873524502482,892.0317809950361,892.0317809950361,0.19250633526568986
2026-01-01,ARIMA,note_20,RM20,20,4865.7854,3741.747049004964,243.28927,187.0873524502482,1124.0383509950357,1124.0383509950357,0.23100861599753983
2026-02-01,ARIMA,note_20,RM20,20,5047.2573,3741.747049004964,252.362865,187.0873524502482,1305.5102509950361,1305.5102509950361,0.25865736050251215
2021-02-01,ARIMA,note_50,RM50,50,62524.219875,58707.38116181106,1250.4843975000001,1174.1476232362213,3816.8387131889394,3816.8387131889394,0.06104576307900618
2021-03-01,ARIMA,note_50,RM50,50,63501.245425,57810.69258804138,1270.0249085,1156.2138517608275,5690.5528369586245,5690.5528369586245,0.08961324772251307
2021-04-01,ARIMA,note_50,RM50,50,65557.5046,58100.16260607973,1311.150092,1162.0032521215946,7457.341993920272,7457.341993920272,0.11375268231183211
2021-05-01,ARIMA,note_50,RM50,50,66160.1593,58253.26284289024,1323.203186,1165.0652568578048,7906.89645710976,7906.89645710976,0.11951144829105272
2021-06-01,ARIMA,note_50,RM50,50,65362.572,58219.59833042892,1307.25144,1164.3919666085783,7142.973669571082,7142.973669571082,0.10928232245161774
2021-07-01,ARIMA,note_50,RM50,50,66535.27805,58194.46541642543,1330.7055609999998,1163.8893083285086,8340.812633574562,8340.812633574562,0.1253592511826072
2021-08-01,ARIMA,note_50,RM50,50,67528.902925,58197.91210165257,1350.5780585,1163.9582420330514,9330.990823347434,9330.990823347434,0.1381777345577606
2021-09-01,ARIMA,note_50,RM50,50,68567.81265,58201.90498297048,1371.3562530000002,1164.0380996594097,10365.907667029525,10365.907667029525,0.1511774587289467
2021-10-01,ARIMA,note_50,RM50,50,69390.046025,58201.64284740603,1387.8009205,1164.0328569481205,11188.403177593973,11188.403177593973,0.1612393105138306
2021-11-01,ARIMA,note_50,RM50,50,69055.268275,58201.02674154511,1381.1053654999998,1164.020534830902,10854.241533454886,10854.241533454886,0.1571819472227644
2021-12-01,ARIMA,note_50,RM50,50,70550.155125,58201.02670737754,1411.0031025,1164.0205341475507,12349.128417622465,12349.128417622465,0.1750404148047926
2022-01-01,ARIMA,note_50,RM50,50,72883.797725,58201.11918553497,1457.6759545,1164.0223837106994,14682.678539465029,14682.678539465029,0.20145325844386808
2022-02-01,ARIMA,note_50,RM50,50,70169.5812,58201.12510193392,1403.391624,1164.0225020386783,11968.456098066083,11968.456098066083,0.17056473607777614
2022-03-01,ARIMA,note_50,RM50,50,69735.686725,58201.11159871491,1394.7137345,1164.0222319742982,11534.575126285097,11534.575126285097,0.16540419501095974
2022-04-01,ARIMA,note_50,RM50,50,78008.8334,58201.109847500586,1560.176668,1164.0221969500117,19807.723552499418,19807.723552499418,0.2539164180411832
2022-05-01,ARIMA,note_50,RM50,50,74151.031725,58201.11176245738,1483.0206345,1164.0222352491476,15949.919962542612,15949.919962542612,0.21510044555678248
2022-06-01,ARIMA,note_50,RM50,50,72526.793825,58201.11214772817,1450.5358765,1164.0222429545634,14325.68167727183,14325.68167727183,0.19752261091036627
2022-07-01,ARIMA,note_50,RM50,50,71209.298925,58201.11188491108,1424.1859785,1164.0222376982215,13008.187040088917,13008.187040088917,0.18267539824805146
2022-08-01,ARIMA,note_50,RM50,50,70650.00215,58201.111810280694,1413.000043,1164.0222362056138,12448.890339719306,12448.890339719306,0.17620509498766246
2022-09-01,ARIMA,note_50,RM50,50,69954.733025,58201.11184496033,1399.0946605,1164.0222368992065,11753.621180039663,11753.621180039663,0.16801752607417178
2022-10-01,ARIMA,note_50,RM50,50,69939.5144,58201.111858379445,1398.790288,1164.0222371675889,11738.402541620555,11738.402541620555,0.1678364890337379
2022-11-01,ARIMA,note_50,RM50,50,69677.643325,58201.11185403163,1393.5528665,1164.0222370806325,11476.531470968366,11476.531470968366,0.16470895000621588
2022-12-01,ARIMA,note_50,RM50,50,71074.59975,58201.11185173944,1421.4919949999999,1164.0222370347888,12873.487898260551,12873.487898260551,0.18112642130299936
2023-01-01,ARIMA,note_50,RM50,50,72679.8847,58201.11185224555,1453.5976939999998,1164.022237044911,14478.772847754444,14478.772847754444,0.1992129308889017
2023-02-01,ARIMA,note_50,RM50,50,68584.9783,58201.11185262197,1371.699566,1164.0222370524396,10383.86644737803,10383.86644737803,0.15140146872916674
2023-03-01,ARIMA,note_50,RM50,50,69031.57565,58201.111852570066,1380.631513,1164.0222370514014,10830.463797429933,10830.463797429933,0.15689144707259675
2023-04-01,ARIMA,note_50,RM50,50,71599.928525,58201.11185251024,1431.9985705,1164.022237050205,13398.816672489753,13398.816672489753,0.18713449787608924
2023-05-01,ARIMA,note_50,RM50,50,67469.1893,58201.11185251421,1349.3837859999999,1164.0222370502843,9268.07744748579,9268.07744748579,0.13736755315490043
2023-06-01,ARIMA,note_50,RM50,50,67954.151275,58201.11185252344,1359.0830254999998,1164.022237050469,9753.039422476555,9753.039422476555,0.14352382068620803
2023-07-01,ARIMA,note_50,RM50,50,66806.8621,58201.111852523434,1336.137242,1164.0222370504687,8605.750247476564,8605.750247476564,0.12881536382587508
2023-08-01,ARIMA,note_50,RM50,50,66476.65415,58201.111852522045,1329.533083,1164.022237050441,8275.542297477958,8275.542297477958,0.12448794848797241
2023-09-01,ARIMA,note_50,RM50,50,66598.600825,58201.11185252196,1331.9720165,1164.0222370504391,8397.488972478044,8397.488972478044,0.1260910720113172
2023-10-01,ARIMA,note_50,RM50,50,66344.389775,58201.11185252216,1326.8877955,1164.0222370504432,8143.277922477842,8143.277922477842,0.12274252502879159
2023-11-01,ARIMA,note_50,RM50,50,66189.390775,58201.11185252219,1323.7878155,1164.022237050444,7988.278922477817,7988.278922477817,0.12068820741427676
2023-12-01,ARIMA,note_50,RM50,50,67668.02185,58201.11185252216,1353.360437,1164.0222370504432,9466.909997477844,9466.909997477844,0.13990227198399835
2024-01-01,ARIMA,note_50,RM50,50,69037.047,58201.111852522154,1380.7409400000001,1164.022237050443,10835.935147477852,10835.935147477852,0.15695826542925354
2024-02-01,ARIMA,note_50,RM50,50,69442.71655,58201.11185252216,1388.854331,1164.0222370504432,11241.604697477836,11241.604697477836,0.16188313556805745
2024-03-01,ARIMA,note_50,RM50,50,69586.5102,58201.11185252216,1391.7302040000002,1164.0222370504432,11385.398347477843,11385.398347477843,0.1636150212843673
2024-04-01,ARIMA,note_50,RM50,50,68237.70795,58201.11185252216,1364.7541589999998,1164.0222370504432,10036.596097477835,10036.596097477835,0.14708284318154383
2024-05-01,ARIMA,note_50,RM50,50,67839.466475,58201.11185252216,1356.7893295,1164.0222370504432,9638.354622477833,9638.354622477833,0.1420759201582125
2024-06-01,ARIMA,note_50,RM50,50,68208.4802,58201.11185252216,1364.1696040000002,1164.0222370504432,10007.368347477845,10007.368347477845,0.1467173629750197
2024-07-01,ARIMA,note_50,RM50,50,67303.8575,58201.11185252216,1346.07715,1164.0222370504432,9102.745647477837,9102.745647477837,0.13524849816339038
2024-08-01,ARIMA,note_50,RM50,50,67374.776325,58201.11185252216,1347.4955264999999,1164.0222370504432,9173.664472477838,9173.664472477838,0.13615873733259237
2024-09-01,ARIMA,note_50,RM50,50,67275.8098,58201.11185252216,1345.516196,1164.0222370504432,9074.697947477842,9074.697947477842,0.1348879779292949
2024-10-01,ARIMA,note_50,RM50,50,66997.834175,58201.11185252216,1339.9566834999998,1164.0222370504432,8796.722322477835,8796.722322477835,0.1312986073475238
2024-11-01,ARIMA,note_50,RM50,50,66858.54425,58201.11185252216,1337.1708850000002,1164.0222370504432,8657.432397477845,8657.432397477845,0.12948879600347932
2024-12-01,ARIMA,note_50,RM50,50,69193.5498,58201.11185252216,1383.8709959999999,1164.0222370504432,10992.437947477832,10992.437947477832,0.1588650673256517
2025-01-01,ARIMA,note_50,RM50,50,72501.209875,58201.11185252216,1450.0241975,1164.0222370504432,14300.09802247784,14300.09802247784,0.1972394398263528
2025-02-01,ARIMA,note_50,RM50,50,69872.399175,58201.11185252216,1397.4479835,1164.0222370504432,11671.287322477838,11671.287322477838,0.16703716288954576
2025-03-01,ARIMA,note_50,RM50,50,71673.508125,58201.11185252216,1433.4701624999998,1164.0222370504432,13472.396272477832,13472.396272477832,0.18796898079806154
2025-04-01,ARIMA,note_50,RM50,50,68913.75035,58201.11185252216,1378.275007,1164.0222370504432,10712.638497477841,10712.638497477841,0.15544994203726195
2025-05-01,ARIMA,note_50,RM50,50,68174.5496,58201.11185252216,1363.490992,1164.0222370504432,9973.437747477838,9973.437747477838,0.1462926826212261
2025-06-01,ARIMA,note_50,RM50,50,67291.029175,58201.11185252216,1345.8205835,1164.0222370504432,9089.917322477842,9089.917322477842,0.1350836424100188
2025-07-01,ARIMA,note_50,RM50,50,67075.795925,58201.11185252216,1341.5159185,1164.0222370504432,8874.684072477838,8874.684072477838,0.13230829317927081
2025-08-01,ARIMA,note_50,RM50,50,67461.628025,58201.11185252216,1349.2325604999999,1164.0222370504432,9260.516172477837,9260.516172477837,0.13727086706306682
2025-09-01,ARIMA,note_50,RM50,50,67094.934575,58201.11185252216,1341.8986915,1164.0222370504432,8893.822722477846,8893.822722477846,0.13255579990969601
2025-10-01,ARIMA,note_50,RM50,50,67957.8299,58201.11185252216,1359.156598,1164.0222370504432,9756.718047477836,9756.718047477836,0.14357018259463045
2025-11-01,ARIMA,note_50,RM50,50,67407.160175,58201.11185252216,1348.1432035,1164.0222370504432,9206.048322477836,9206.048322477836,0.13657374526055438
2025-12-01,ARIMA,note_50,RM50,50,69060.76385,58201.11185252216,1381.215277,1164.0222370504432,10859.651997477842,10859.651997477842,0.15724778285199695
2026-01-01,ARIMA,note_50,RM50,50,70449.445525,58201.11185252216,1408.9889105,1164.0222370504432,12248.333672477842,12248.333672477842,0.17385990168128923
2026-02-01,ARIMA,note_50,RM50,50,72273.7951,58201.11185252216,1445.4759020000001,1164.0222370504432,14072.683247477842,14072.683247477842,0.1947134950919139
